!!!!SEGMENT: pl-cz--iii-225--004_fleming-jan--missa-in-d-sanctus.krn
!!!cenid: 17xx:213
!!!COM: Fleming, Jan
!!!COM-rismid: pe30093579
!!!CDT: <1796->1796
!!!CNT:
!!!OPR: Missa in D
!!!OTL: Sanctus
!!!OMV: 004
!!!PDT:
!!!AGN: Sacred; Mass
!!!SMS-siglum: PL-CZ
!!!SMS-shelfmark: III-225
!!!SMS-shelfwork: 001-004 M
!!!NIFC-rismid:
!!!URL-scan: http://repozytorium.nifc.pl/skany/pl-cz-nut--iii-225
!!!ONB-nifc: UWAGA: części Mszy: Kyrie, Gloria, Credo, Sanctus, Agnus
**kern	**dynam	**kern	**text	**kern	**text	**kern	**text	**kern	**text	**kern	**kern	**dynam	**kern	**kern	**kern	**kern
*part11	*part11	*part10	*part10	*part9	*part9	*part8	*part8	*part7	*part7	*part6	*part5	*part5	*part4	*part3	*part2	*part1
*group5	*	*group4	*	*group4	*	*group4	*	*group4	*	*group3	*group3	*	*group2	*group2	*group1	*group1
*staff11	*	*staff10	*staff10	*staff9	*staff9	*staff8	*staff8	*staff7	*staff7	*staff6	*staff5	*	*staff4	*staff3	*staff2	*staff1
*Iempty	*	*Iempty	*	*Itenor	*	*Ialto	*	*Ivox	*	*Ivioln	*Ivioln	*	*Iempty	*Iempty	*Iflt	*Iflt
*I"Baſso	*	*I"Baſso	*	*I"Tenore	*	*I"Alto	*	*I"Canto	*	*I"Violino Secundo	*I"Violino Primo	*	*I"Cornu Secondo	*I"Cornu Primo in D	*I"Flauto Secondo	*I"Flauto Primo
*I'Bc	*	*I'B	*	*I'T	*	*I'A	*	*I'C	*	*I'Vn II	*I'Vn I	*	*I'Cor II	*I'Cor I	*I'Fl II	*I'Fl I
*clefF4	*	*clefF4	*	*clefC4	*	*clefC3	*	*clefC1	*	*clefG2	*clefG2	*	*clefG2	*clefG2	*clefG2	*clefG2
*	*	*	*	*	*	*	*	*	*	*	*	*	*ITrd-1c-2	*ITrd-1c-2	*	*
*k[f#c#]	*	*k[f#c#]	*	*k[f#c#]	*	*k[f#c#]	*	*k[f#c#]	*	*k[f#c#]	*k[f#c#]	*	*k[f#c#]	*k[f#c#]	*k[f#c#]	*k[f#c#]
*D:	*	*D:	*	*D:	*	*D:	*	*D:	*	*D:	*D:	*	*	*	*D:	*D:
*M4/4	*	*M4/4	*	*M4/4	*	*M4/4	*	*M4/4	*	*M4/4	*M4/4	*	*M4/4	*M4/4	*M4/4	*M4/4
*met(c)	*	*met(c)	*	*met(c)	*	*met(c)	*	*met(c)	*	*met(c)	*met(c)	*	*met(c)	*met(c)	*met(c)	*met(c)
=1	=1	=1	=1	=1	=1	=1	=1	=1	=1	=1	=1	=1	=1	=1	=1	=1
*2\right	*	*2\right	*	*	*	*2\right	*	*2\right	*	*	*	*	*	*	*	*
*tremolo	*	*	*	*	*	*	*	*	*	*	*	*	*	*	*	*
!	!	!	!	!	!	!LO:TX:a:t=Ada:	!	!LO:TX:a:t=Ada	!	!	!	!	!LO:TX:a:t=Sanctus	!LO:TX:a:t=Sanctus	!	!
!LO:TX:a:t=adagio	!	!LO:TX:a:t=Adai	!	!LO:TX:a:t=Adas	!	!LO:TX:a:t=problem: większość nut w dół ma caudy z prawej strony	!	!	!	!LO:TX:a:t=adagio	!LO:TX:a:t=adagio.	!	!LO:TX:a:t=ad:	!LO:TX:a:B:t=And.	!LO:TX:a:t=Tacet	!LO:TX:a:t=Tactet
8D\L	.	2D\	San-	2F#/	San-	2dd\	San-	2a\	San-	4f#/	4a\	.	4ff#\	4aa\	1ryy	1ryy
8D\	.	.	.	.	.	.	.	.	.	.	.	.	.	.	.	.
8D\	.	.	.	.	.	.	.	.	.	4f#/	4a\	.	4ff#\	4aa\	.	.
8D\J	.	.	.	.	.	.	.	.	.	.	.	.	.	.	.	.
!	!	!	!	!	!	!	!	!	!	!LO:LB:g=original	!	!	!	!	!	!
8D\L	.	2D\	-ctus	2G/	-ctus	2dd\	-ctus	2b\	-ctus	4g/	4b\	.	4gg\	4bb\	.	.
8D\	.	.	.	.	.	.	.	.	.	.	.	.	.	.	.	.
8D\	.	.	.	.	.	.	.	.	.	8b/L	8dd\L	.	4gg\	4bb\	.	.
8D\J	.	.	.	.	.	.	.	.	.	8g/J	8b\J	.	.	.	.	.
!LO:LB:g=original	!	!	!	!	!	!	!	!	!	!	!	!	!	!	!	!
=2	=2	=2	=2	=2	=2	=2	=2	=2	=2	=2	=2	=2	=2	=2	=2	=2
.	.	.	.	8qqF#/	.	.	.	.	.	8qqf#/	8qqa/	.	8qqff#/	8qqaa/	.	.
*Xtremolo	*	*	*	*	*	*	*	*	*	*	*	*	*2\right	*2\right	*	*
8D\L	.	4A\	Do-	2E/	Do-	2a\	Do-	2g\	Do-	2e/	2g/	.	2ee\	2gg\	1ryy	1ryy
8D\	.	.	.	.	.	.	.	.	.	.	.	.	.	.	.	.
8C#\	.	4AA/	.	.	.	.	.	.	.	.	.	.	.	.	.	.
8AA\J	.	.	.	.	.	.	.	.	.	.	.	.	.	.	.	.
4D\	.	4D\	.	4D/	-mi-	4d\	-mi-	4f#\	-mi-	4d/	4f#/	.	4dd\	4ff#\	.	.
8d\L	.	8d\	-mi-	4A/	-nus	4a\	-nus	4ff#\	-nus	8a/L	8ff#\L	.	8dd\L	8ff#\L	.	.
8d\J	.	8d\	-nus	.	.	.	.	.	.	8a/J	8ff#\J	.	8dd\J	8ff#\J	.	.
=3	=3	=3	=3	=3	=3	=3	=3	=3	=3	=3	=3	=3	=3	=3	=3	=3
!	!	!	!	!	!	!	!	!	!	!	!LO:N:vis=8	!	!	!	!	!
4d\	.	4d\	De-	4A\	De-	4a\	De-	4ff#\	De-	4a/	4ff#\L	.	4dd\	4ff#\	1ryy	1ryy
!	!	!	!	!	!	!	!	!	!	!	!LO:N:vis=8	!	!	!	!	!
4D/	.	4D\	-us	4A\	-us	4a\	-us	4ff#\	-us	4a/	4ff#\J	.	4dd\	4ff#\	.	.
4.D/	.	4.d\	Sa-	4.A\	Sa-	4.a\	sa-	4.ff#\	Sa-	4.a/	4.ff#\	.	4.dd\	4.ff#\	.	.
8G#X\	.	8G#X\	-ba-	8B\	-ba-	8a\	-ba-	8ff#\	-ba-	8dd\	8ff#\	.	8dd\	8ff#\	.	.
=4	=4	=4	=4	=4	=4	=4	=4	=4	=4	=4	=4	=4	=4	=4	=4	=4
*	*	*	*	*2\right	*	*	*	*	*	*2\right	*2\right	*	*	*	*	*
2A;\	.	2A;\	-oth	2c#;\	-oth	2a;\	-oth	2ee;\	-oth	2cc#;\	2ee;\	.	2a;/	2ee;\	1ryy	1ryy
8A#X\L	.	4F#\	ple-	4c#\	Ple-	4a\	Ple-	4ee\	Ple-	4cc#\	4ee\	.	4f#/	4f#/	.	.
8F#\	.	.	.	.	.	.	.	.	.	.	.	.	.	.	.	.
8A#\	.	4F#\	-ni	4c#\	-ni	4a\	-ni	4ee\	-ni	8cc#\L	8ee\L	.	8f#/L	8f#/L	.	.
8F#\J	.	.	.	.	.	.	.	.	.	8cc#\J	8ee\J	.	8f#/J	8f#/J	.	.
=5	=5	=5	=5	=5	=5	=5	=5	=5	=5	=5	=5	=5	=5	=5	=5	=5
!LO:TX:a:t=sic:s=8A#	!	!	!	!	!	!	!	!	!	!	!	!	!	!	!	!
8A\L	.	4F#\	Ple-	4c#\	Ple-	4a\	Ple-	4ee\	ple-	4cc#\	4ee\	.	4f#/	4f#/	1ryy	1ryy
8F#\	.	.	.	.	.	.	.	.	.	.	.	.	.	.	.	.
!LO:TX:a:t=sic:s=8A#	!	!	!	!	!	!	!	!	!	!	!	!	!	!	!	!
8A\	.	4F#\	-ni	4c#\	-ni	4a\	-ni	4ee\	-ni	4cc#\	4ee\	.	4f#/	4f#/	.	.
8F#\J	.	.	.	.	.	.	.	.	.	.	.	.	.	.	.	.
8A\L	.	4F#\	sunt	4c#\	sunt	4a\	sun	4ee\	sunt	4ee\	4ccc#\	.	4f#/	4f#/	.	.
!LO:TX:a:t=sic:s=8A#	!	!	!	!	!	!	!	!	!	!	!	!	!	!	!	!
8F#\	.	.	.	.	.	.	.	.	.	.	.	.	.	.	.	.
!LO:TX:a:t=sic:s=8A#	!	!	!	!	!	!LO:TX:a:t=sic:l:s=cae-	!	!LO:TX:a:t=sic:l:s=cae-	!	!	!	!	!	!	!	!
8A\	.	8F#\	cae-	8c#\	cae-	8a\	ce-	8ee\	ce-	4cc#\	4ee\	.	8f#/L	8f#/L	.	.
8F#\J	.	8F#\	-li	8c#\	-li	8a\	-li	8ee\	-li	.	.	.	8f#/J	8f#/J	.	.
!	!	!	!	!	!	!	!	!LO:LB:g=original	!	!	!LO:LB:g=original	!	!	!	!	!
=6	=6	=6	=6	=6	=6	=6	=6	=6	=6	=6	=6	=6	=6	=6	=6	=6
8B\L	.	4B\	et	4F#/	et-	4b\	et-	4dd\	et	4f#/	4dd\	.	4f#/	4f#/	1ryy	1ryy
8F#\	.	.	.	.	.	.	.	.	.	.	.	.	.	.	.	.
8B\	.	4BB/	.	4F#/	.	4f#\	.	4dd\	.	4f#/	4dd\	.	4f#/	4f#/	.	.
8F#\J	.	.	.	.	.	.	.	.	.	.	.	.	.	.	.	.
8G#X\L	.	4E\	ter-	4B\	-ter-	4g#X\	-ter-	4dd\	ter-	4b\	4dd\	.	4ee\	4ee\	.	.
8E\	.	.	.	.	.	.	.	.	.	.	.	.	.	.	.	.
8G#\	.	4E\	-ra	4B\	-ra	4g#\	-ra	4dd\	-ra	8b\L	8dd\L	.	8ee\L	8ee\L	.	.
8E\J	.	.	.	.	.	.	.	.	.	8b\J	8dd\J	.	8ee\J	8ee\J	.	.
!	!	!	!	!	!	!LO:LB:g=original	!	!	!	!	!	!	!	!	!	!
=7	=7	=7	=7	=7	=7	=7	=7	=7	=7	=7	=7	=7	=7	=7	=7	=7
!LO:TX:a:t=sic:s=8G#	!	!	!	!	!	!	!	!	!	!	!	!	!	!	!	!
8G\L	.	4E\	Ple-	4B\	Ple-	4g\	Ple-	4dd\	ple-	4b\	4dd\	.	4ee\	4ee\	1ryy	1ryy
8E\	.	.	.	.	.	.	.	.	.	.	.	.	.	.	.	.
!LO:TX:a:t=sic:s=8G#	!	!	!	!	!	!	!	!	!	!	!	!	!	!	!	!
8G\	.	4E\	-ni	4B\	-ni	4g\	-ni	4dd\	-ni	4b\	4dd\	.	4ee\	4ee\	.	.
8E\J	.	.	.	.	.	.	.	.	.	.	.	.	.	.	.	.
!LO:TX:a:t=sic:s=8G#	!	!	!	!	!	!	!	!	!	!	!	!	!	!	!	!
8G\L	.	4E\	sunt	4B\	sunt	4g\	sunt	4dd\	sunt	4dd\	4bb\	.	4ee\	4ee\	.	.
8E\	.	.	.	.	.	.	.	.	.	.	.	.	.	.	.	.
!LO:TX:a:t=sic:s=8G#	!	!	!	!	!	!LO:TX:a:t=sic:l:s=cae-	!	!LO:TX:a:t=sic:l:s=cae-	!	!	!	!	!	!	!	!
8G\	.	8E\	cae-	8B\	.	8g\	Ce-	8dd\	celi	4b\	4dd\	.	8ee\L	8ee\L	.	.
8E\J	.	8E\	-li	8B\	.	8g\	-li	8dd\	et	.	.	.	8ee\J	8ee\J	.	.
!LO:LB:g=original	!	!LO:LB:g=original	!	!LO:LB:g=original	!	!	!	!	!	!	!	!	!	!	!	!
=8	=8	=8	=8	=8	=8	=8	=8	=8	=8	=8	=8	=8	=8	=8	=8	=8
.	.	.	.	.	.	.	.	.	.	.	8qqdd/	.	.	.	.	.
8A\L	.	4A\	et	4E/	et	4a\	et	4cc#\	ter-	4e/	4cc#\	.	4a/	4ee\	1ryy	1ryy
8E\	.	.	.	.	.	.	.	.	.	.	.	.	.	.	.	.
8A\	.	4AA/	.	4E/	ter-	4a\	ter	4cc#\	-ra	4e/	4cc#\	.	4a/	4ee\	.	.
8E\J	.	.	.	.	.	.	.	.	.	.	.	.	.	.	.	.
4A\	.	4A\	ter-	8.c#\	-ra	2a\	ra	8.ee\	glo-	8.cc#\L	8.ee\L	.	2r	2r	.	.
.	.	.	.	16e\	glori-	.	.	16gg\	-ri-	16ee\Jk	16gg\Jk	.	.	.	.	.
.	.	.	.	8qqe/	.	.	.	.	.	8qqee/	8qqgg/	.	.	.	.	.
8r	.	4A\	-ra	4d\	-a	.	.	4ff#\	-a	4dd\	4ff#\	.	.	.	.	.
8D\	.	.	.	.	.	.	.	.	.	.	.	.	.	.	.	.
!	!	!	!	!	!	!	!	!	!	!LO:PB:g=original	!	!	!	!	!	!
=9	=9	=9	=9	=9	=9	=9	=9	=9	=9	=9	=9	=9	=9	=9	=9	=9
4AA/	.	4A\	Ple-	8.E/L	tu-	4a\	glo-	8.cc#\L	Tu-	8.e/L	8cc#\L	.	8.a\L	8.ee\L	1ryy	1ryy
.	.	.	.	.	.	.	.	.	.	.	8ee\J	.	.	.	.	.
.	.	.	.	16G/Jk	.	.	.	16ee\Jk	.	16g/Jk	.	.	16ee\Jk	16gg\Jk	.	.
.	.	.	.	8qqG/	.	.	.	.	.	8qqg/	8qqee/	.	.	.	.	.
!	!LO:DY:t=p:	!	!	!	!	!	!	!	!	!	!	!	!	!	!	!
8r	p	4A\	-ni	4F#/	-a	4a\	-ri-	4dd\	-a	4f#/	4dd\	.	4dd\	4ff#\	.	.
8D\	.	.	.	.	.	.	.	.	.	.	.	.	.	.	.	.
4A\	.	8A\	.	8.c#\	o-	4a\	-a	8.ee\L	O-	8.cc#\L	8.ee\L	.	2r	2r	.	.
.	.	8A\	sunt-	.	.	.	.	.	.	.	.	.	.	.	.	.
.	.	.	.	16e\	-san-	.	.	16gg\Jk	-san-	16ee\Jk	16gg\Jk	.	.	.	.	.
.	.	.	.	.	.	.	.	.	.	8qqee/	8qqgg/	.	.	.	.	.
8r	.	4AA/	.	4d\	-na	4a\	tu	4ff#\	-na	4dd\	4ff#\	.	.	.	.	.
8D\	.	.	.	.	.	.	.	.	.	.	.	.	.	.	.	.
!	!	!	!	!	!	!	!	!	!	!	!	!	!LO:LB:g=original	!	!	!
=10	=10	=10	=10	=10	=10	=10	=10	=10	=10	=10	=10	=10	=10	=10	=10	=10
!	!	!LO:TX:a:t=sic:l:s=cae-	!	!	!	!	!	!	!	!	!	!	!	!	!	!
4AA/	.	4A\	-celi	8.E/	in	8.a\	o-	8.cc#\	in	8.e/L	8.cc#\L	.	8.a\L	8.ee\L	1ryy	1ryy
.	.	.	.	16G/	.	16a\	-san-	16ee\	ex-	16g/Jk	16ee\Jk	.	16ee\Jk	16gg\Jk	.	.
!	!LO:DY:t=f:	!	!	!	!	!	!	!	!	!	!	!	!	!	!	!
8r	f	4A\	.	8F#/L	ex-	8d\L	-na	8dd\L	-cel-	8f#/L	8dd\L	.	8dd\L	8ff#\L	.	.
8G\	.	.	.	8B/J	.	8f#\J	in	8ff#\J	.	8b/J	16gg\L	.	8ee\J	8gg\J	.	.
.	.	.	.	.	.	.	.	.	.	.	16ee\JJ	.	.	.	.	.
!LO:TX:a:t=problem: mixed beam	!	!	!	!	!	!	!	!	!	!	!	!	!	!	!	!
8A\L	.	8D\	.	4F#/	-cel-	4a\	ex-	4dd\	.	4f#/	4dd\	.	4dd\	4ff#\	.	.
8G\	.	8G\	.	.	.	.	.	.	.	.	.	.	.	.	.	.
!	!	!LO:TX:a:t=problem: mixed bead	!	!	!	!	!	!	!	!	!	!	!	!LO:TX:a:t=t	!	!
8A\	.	8A\L	et	4E/	.	4a\	-cel-	4cc#\	.	4g/	4ee\	.	4a/	4ee\	.	.
8AA/J	.	8AA/J	ter-	.	.	.	.	.	.	.	.	.	.	.	.	.
=11	=11	=11	=11	=11	=11	=11	=11	=11	=11	=11	=11	=11	=11	=11	=11	=11
2D\	.	2D\	-ra	2F#/	-sis	2f#\	-sis	2dd\	-sis	2f#/	2dd\	.	2f#/	2dd\	1ryy	1r
!	!	!LO:TX:a:B:t=Benedictus Tacet	!	!LO:TX:b:i:t=Verte Osanna	!	!	!	!	!	!	!	!	!	!	!	!
2r	.	2r	.	2r	.	2r	.	2r	.	2r	2r	.	2r	2r	.	.
!LO:PB:g=original	!	!LO:LB:g=original	!	!LO:PB:g=original	!	!LO:LB:g=original	!	!LO:LB:g=original	!	!LO:LB:g=original	!LO:LB:g=original	!	!	!LO:LB:g=original	!	!
=12	=12	=12	=12	=12	=12	=12	=12	=12	=12	=12||	=12||	=12	=12	=12	=12	=12
*k[f#]	*	*k[f#]	*	*k[f#]	*	*k[f#]	*	*k[f#]	*	*k[f#]	*k[f#]	*	*k[f#]	*k[f#]	*k[f#]	*k[f#]
*G:	*	*G:	*	*G:	*	*G:	*	*G:	*	*G:	*G:	*	*G:	*G:	*G:	*G:
*M3/4	*	*M3/4	*	*M3/4	*	*M3/4	*	*M3/4	*	*M3/4	*M3/4	*	*M3/4	*M3/4	*M3/4	*M3/4
!LO:TX:a:t=Benedictus	!	!	!	!LO:TX:b:B:t=Benedictus Tactet	!	!LO:TX:a:B:t=B	!	!LO:N:vis=00	!	!LO:TX:b:t=Benedictus	!LO:TX:a:t=Benedictus	!	!	!	!LO:TX:a:t=Benedictus	!LO:TX:a:t=Benedictus
!LO:TX:a:t=andante	!	!	!	!	!	!LO:N:vis=00	!	!LO:TX:a:B:t=B	!	!LO:TX:a:t=Andante	!LO:TX:a:t=andante	!	!LO:TX:a:t=Benedictus Tacet	!LO:TX:a:t=Benedictus Tacet	!LO:TX:a:t=Andante.	!LO:TX:a:B:t=Andante
4G\	.	2.ryy	.	2.ryy	.	0.r	.	0.r	.	4b\	4dd\	.	2.ryy	2.ryy	4bb\	4ddd\
4GG/	.	.	.	.	.	.	.	.	.	8g\L	8b\L	.	.	.	8gg\L	8bb\L
.	.	.	.	.	.	.	.	.	.	8a\	8cc\	.	.	.	8aa\	8ccc\
4r	.	.	.	.	.	.	.	.	.	8b\	8dd\	.	.	.	8bb\	8ddd\
.	.	.	.	.	.	.	.	.	.	8cc\J	8ee\J	.	.	.	8ccc\J	8eee\J
=13	=13	=13	=13	=13	=13	=13	=13	=13	=13	=13	=13	=13	=13	=13	=13	=13
.	.	.	.	.	.	.	.	.	.	8qqcc/	8qqee/	.	.	.	.	.
4G\	.	2.ryy	.	2.ryy	.	.	.	.	.	4b\	4dd\	.	2.ryy	2.ryy	4bb\	4ddd\
4GG/	.	.	.	.	.	.	.	.	.	8g/L	8b\L	.	.	.	8gg\L	8bb\L
.	.	.	.	.	.	.	.	.	.	8a/	8cc\	.	.	.	8aa\	8ccc\
4r	.	.	.	.	.	.	.	.	.	8b/	8dd\	.	.	.	8bb\	8ddd\
.	.	.	.	.	.	.	.	.	.	8cc/J	8ee\J	.	.	.	8ccc\J	8eee\J
=14	=14	=14	=14	=14	=14	=14	=14	=14	=14	=14	=14	=14	=14	=14	=14	=14
*tremolo	*	*	*	*	*	*	*	*	*	*	*	*	*	*	*	*
8G\L	.	2.ryy	.	2.ryy	.	.	.	.	.	16g\LL	(16b\LL	.	2.ryy	2.ryy	4bb\	4ddd\
.	.	.	.	.	.	.	.	.	.	16ee\	16gg\)	.	.	.	.	.
8G\	.	.	.	.	.	.	.	.	.	16ee\	(16gg\	.	.	.	.	.
.	.	.	.	.	.	.	.	.	.	16dd\JJ	16ff#\JJ)	.	.	.	.	.
8G\	.	.	.	.	.	.	.	.	.	16dd\LL	(16ff#\LL	.	.	.	4r	4r
.	.	.	.	.	.	.	.	.	.	16cc\	16ee\)	.	.	.	.	.
8G\	.	.	.	.	.	.	.	.	.	16cc\	(16ee\	.	.	.	.	.
.	.	.	.	.	.	.	.	.	.	16b\JJ	16dd\JJ)	.	.	.	.	.
8G\	.	.	.	.	.	.	.	.	.	16b/LL	(16dd\LL	.	.	.	4r	4r
.	.	.	.	.	.	.	.	.	.	16a/	16cc\)	.	.	.	.	.
8G\J	.	.	.	.	.	.	.	.	.	16a/	(16cc\	.	.	.	.	.
.	.	.	.	.	.	.	.	.	.	16g/JJ	16b\JJ)	.	.	.	.	.
*Xtremolo	*	*	*	*	*	*	*	*	*	*	*	*	*	*	*	*
=15	=15	=15	=15	=15	=15	=15	=15	=15	=15	=15	=15	=15	=15	=15	=15	=15
!LO:TX:a:t=problem: mixed beam	!	!	!	!	!	!	!	!	!	!	!	!	!	!	!	!
8G\L	.	2.ryy	.	2.ryy	.	.	.	.	.	8g/L	8b\L	.	2.ryy	2.ryy	8gg\L	8bb\L
8GG/J	.	.	.	.	.	.	.	.	.	16a/L	16cc\L	.	.	.	16aa\L	16ccc\L
.	.	.	.	.	.	.	.	.	.	16b/JJ	16dd\JJ	.	.	.	16bb\JJ	16ddd\JJ
*tremolo	*	*	*	*	*	*	*	*	*	*	*	*	*	*	*	*
8D\L	.	.	.	.	.	.	.	.	.	4.g/	4.b\	.	.	.	4.gg\	4.bb\
8D\	.	.	.	.	.	.	.	.	.	.	.	.	.	.	.	.
8D\	.	.	.	.	.	.	.	.	.	.	.	.	.	.	.	.
8D\J	.	.	.	.	.	.	.	.	.	8f#/	8a\	.	.	.	8ff#\	8aa\
!	!	!	!	!	!	!	!	!	!	!	!LO:LB:g=original	!	!	!	!	!
=16	=16	=16	=16	=16	=16	=16	=16	=16	=16	=16	=16	=16	=16	=16	=16	=16
!	!	!	!	!	!	!LO:N:vis=00	!	!LO:N:vis=00	!	!	!	!	!	!	!	!
4D\	.	2.ryy	.	2.ryy	.	0.r	.	0.r	.	8d/L	8d/L	.	2.ryy	2.ryy	2.r	2.r
!	!	!	!	!	!	!	!	!	!	!	!LO:TX:a;t=problem:3 pod klamrą łukową	!	!	!	!	!
!	!	!	!	!	!	!	!	!	!	!	!LO:TUP:b	!	!	!	!	!
*	*	*	*	*	*	*	*	*	*	*Xtuplet	*	*	*	*	*	*
!	!	!	!	!	!	!	!	!	!	!LO:TX:a:t=problem:triola oznaczona klamrą łukową	!	!	!	!	!	!
.	.	.	.	.	.	.	.	.	.	24f#/L	24f#/L	.	.	.	.	.
.	.	.	.	.	.	.	.	.	.	24e/	24e/	.	.	.	.	.
.	.	.	.	.	.	.	.	.	.	24d/JJ	24d/JJ	.	.	.	.	.
!	!	!	!	!	!	!	!	!	!	!LO:LB:g=original	!	!	!	!	!	!
4r	.	.	.	.	.	.	.	.	.	16d/LL	16d/LL	.	.	.	.	.
.	.	.	.	.	.	.	.	.	.	16f#/	16f#/	.	.	.	.	.
.	.	.	.	.	.	.	.	.	.	16f#/	16a/	.	.	.	.	.
.	.	.	.	.	.	.	.	.	.	16a/JJ	16cc/JJ	.	.	.	.	.
4D\	.	.	.	.	.	.	.	.	.	16a/LL	16dd\LL	.	.	.	.	.
.	.	.	.	.	.	.	.	.	.	16f#/	16a\	.	.	.	.	.
.	.	.	.	.	.	.	.	.	.	16g/	16b\	.	.	.	.	.
.	.	.	.	.	.	.	.	.	.	16a/JJ	16cc\JJ	.	.	.	.	.
=17	=17	=17	=17	=17	=17	=17	=17	=17	=17	=17	=17	=17	=17	=17	=17	=17
4G\	.	2.ryy	.	2.ryy	.	.	.	.	.	8G/L	8b\L	.	2.ryy	2.ryy	(8gg\L	8bb\L
.	.	.	.	.	.	.	.	.	.	8B/	8dd\J	.	.	.	8bb\)	8ddd\J
4GG/	.	.	.	.	.	.	.	.	.	8B/	8dd\L	.	.	.	(8bb\	8ddd\L
.	.	.	.	.	.	.	.	.	.	8A/	8cc\	.	.	.	8aa\)	8ccc\
4r	.	.	.	.	.	.	.	.	.	8A/	8cc\	.	.	.	(8aa\	8ccc\
.	.	.	.	.	.	.	.	.	.	8G/J	8b\J	.	.	.	8gg\J)	8bb\J
!	!	!	!	!	!	!	!	!	!	!	!	!	!	!	!LO:LB:g=original	!LO:LB:g=original
=18	=18	=18	=18	=18	=18	=18	=18	=18	=18	=18	=18	=18	=18	=18	=18	=18
!	!	!	!	!	!	!	!	!	!	!LO:TX:a:t=problem:repetycja tt. 16-17	!	!	!	!	!LO:TX:a:t=1.	!
4D\	.	2.ryy	.	2.ryy	.	.	.	.	.	8d/Lyy	8d/L	.	2.ryy	2.ryy	2.r	2.r
!	!	!	!	!	!	!	!	!	!	!	!LO:TUP:b	!	!	!	!	!
.	.	.	.	.	.	.	.	.	.	24f#/Lyy	24f#/L	.	.	.	.	.
.	.	.	.	.	.	.	.	.	.	24e/yy	24e/	.	.	.	.	.
!	!	!	!	!	!	!	!	!	!	!LO:TX:a:t=problem: łamanie w takcie	!	!	!	!	!	!
.	.	.	.	.	.	.	.	.	.	24d/JJyy	24d/JJ	.	.	.	.	.
4r	.	.	.	.	.	.	.	.	.	16d/LLyy	16d/LL	.	.	.	.	.
.	.	.	.	.	.	.	.	.	.	16f#/yy	16f#/	.	.	.	.	.
.	.	.	.	.	.	.	.	.	.	16f#/yy	16a/	.	.	.	.	.
.	.	.	.	.	.	.	.	.	.	16a/JJyy	16cc/JJ	.	.	.	.	.
4D\	.	.	.	.	.	.	.	.	.	16a/LLyy	16cc\LL	.	.	.	.	.
.	.	.	.	.	.	.	.	.	.	16f#/yy	16a\	.	.	.	.	.
.	.	.	.	.	.	.	.	.	.	16g/yy	16b\	.	.	.	.	.
.	.	.	.	.	.	.	.	.	.	16a/JJyy	16cc\JJ	.	.	.	.	.
!	!	!	!	!	!	!	!	!	!	!	!LO:LB:g=original	!	!	!	!	!
=19	=19	=19	=19	=19	=19	=19	=19	=19	=19	=19	=19	=19	=19	=19	=19	=19
4G\	.	2.ryy	.	2.ryy	.	.	.	.	.	8G/Lyy	8B/L	.	2.ryy	2.ryy	8g/L	8b\L
.	.	.	.	.	.	.	.	.	.	8B/yy	8d/	.	.	.	8b/	8dd\J
4GG/	.	.	.	.	.	.	.	.	.	8B/yy	8d/	.	.	.	8b/	8dd\L
.	.	.	.	.	.	.	.	.	.	8A/yy	8c/	.	.	.	8a/	8cc\
4r	.	.	.	.	.	.	.	.	.	8A/yy	8c/	.	.	.	8a/	8cc\
.	.	.	.	.	.	.	.	.	.	8G/Jyy	8B/J	.	.	.	8g/J	8b\J
=20	=20	=20	=20	=20	=20	=20	=20	=20	=20	=20	=20	=20	=20	=20	=20	=20
*	*	*	*	*	*	*	*	*	*	*	*Xtuplet	*	*	*	*2\right	*2\right
!	!	!	!	!	!	!LO:N:vis=00	!	!LO:N:vis=00	!	!	!	!	!	!	!	!
8G\L	.	2.ryy	.	2.ryy	.	0.r	.	0.r	.	4cc\	4ee\	.	2.ryy	2.ryy	2.ccc\	2.eee\
8G\	.	.	.	.	.	.	.	.	.	.	.	.	.	.	.	.
8G\	.	.	.	.	.	.	.	.	.	8cc\L	12ee\L	.	.	.	.	.
.	.	.	.	.	.	.	.	.	.	.	12gg\	.	.	.	.	.
8G\	.	.	.	.	.	.	.	.	.	16ee\L	.	.	.	.	.	.
.	.	.	.	.	.	.	.	.	.	.	12ff#\J	.	.	.	.	.
.	.	.	.	.	.	.	.	.	.	16dd\JJ	.	.	.	.	.	.
8G\	.	.	.	.	.	.	.	.	.	8ee\L	12gg\L	.	.	.	.	.
.	.	.	.	.	.	.	.	.	.	.	12ff#\	.	.	.	.	.
8G\J	.	.	.	.	.	.	.	.	.	16dd\L	.	.	.	.	.	.
.	.	.	.	.	.	.	.	.	.	.	12ee\J	.	.	.	.	.
.	.	.	.	.	.	.	.	.	.	16cc\JJ	.	.	.	.	.	.
!LO:LB:g=original	!	!	!	!	!	!	!	!	!	!	!	!	!	!	!	!
=21	=21	=21	=21	=21	=21	=21	=21	=21	=21	=21	=21	=21	=21	=21	=21	=21
8G\L	.	2.ryy	.	2.ryy	.	.	.	.	.	4b\	4dd\	.	2.ryy	2.ryy	2.bb\	2.ddd\
8G\	.	.	.	.	.	.	.	.	.	.	.	.	.	.	.	.
8G\	.	.	.	.	.	.	.	.	.	8b\L	12dd\L	.	.	.	.	.
.	.	.	.	.	.	.	.	.	.	.	12gg\	.	.	.	.	.
8G\	.	.	.	.	.	.	.	.	.	16dd\L	.	.	.	.	.	.
.	.	.	.	.	.	.	.	.	.	.	12ff#\J	.	.	.	.	.
.	.	.	.	.	.	.	.	.	.	16cc\JJ	.	.	.	.	.	.
8G\	.	.	.	.	.	.	.	.	.	16dd\LL	(16gg\LL	.	.	.	.	.
.	.	.	.	.	.	.	.	.	.	16b\	16dd\)	.	.	.	.	.
8G\J	.	.	.	.	.	.	.	.	.	16b\	(16dd\	.	.	.	.	.
.	.	.	.	.	.	.	.	.	.	16g\JJ	16b\JJ)	.	.	.	.	.
*Xtremolo	*	*	*	*	*	*	*	*	*	*	*	*	*	*	*	*
=22	=22	=22	=22	=22	=22	=22	=22	=22	=22	=22	=22	=22	=22	=22	=22	=22
8F#\L	.	2.ryy	.	2.ryy	.	.	.	.	.	4a/	4cc\	.	2.ryy	2.ryy	2.aa\	2.ccc\
8F#\	.	.	.	.	.	.	.	.	.	.	.	.	.	.	.	.
8D\	.	.	.	.	.	.	.	.	.	8a/L	8cc\L	.	.	.	.	.
8D\	.	.	.	.	.	.	.	.	.	16cc/L	16ee\L	.	.	.	.	.
.	.	.	.	.	.	.	.	.	.	16b/JJ	16dd\JJ	.	.	.	.	.
8F#\	.	.	.	.	.	.	.	.	.	8cc\L	8ee\L	.	.	.	.	.
8F#\J	.	.	.	.	.	.	.	.	.	16b\L	16dd\L	.	.	.	.	.
.	.	.	.	.	.	.	.	.	.	16a\JJ	16cc\JJ	.	.	.	.	.
=23	=23	=23	=23	=23	=23	=23	=23	=23	=23	=23	=23	=23	=23	=23	=23	=23
!	!	!	!	!	!	!	!	!	!	!	!	!	!	!	!LO:N:vis=0	!LO:N:vis=0
4G\	.	2.ryy	.	2.ryy	.	.	.	.	.	8.b\L	8.b\L	.	2.ryy	2.ryy	1.r	1.r
.	.	.	.	.	.	.	.	.	.	16b\Jk	16dd\Jk	.	.	.	.	.
4GG/	.	.	.	.	.	.	.	.	.	8r	8r	.	.	.	.	.
.	.	.	.	.	.	.	.	.	.	8g\L	8b\L	.	.	.	.	.
4r	.	.	.	.	.	.	.	.	.	8a\	8cc\	.	.	.	.	.
.	.	.	.	.	.	.	.	.	.	8b\J	8dd\J	.	.	.	.	.
!	!	!	!	!	!	!	!	!	!	!LO:LB:g=original	!LO:PB:g=original	!	!	!	!	!
=24	=24	=24	=24	=24	=24	=24	=24	=24	=24	=24	=24	=24	=24	=24	=24	=24
*tremolo	*	*	*	*	*	*	*	*	*	*	*	*	*	*	*	*
!	!	!	!	!	!	!LO:N:vis=00	!	!LO:N:vis=00	!	!	!	!	!	!	!	!
8D\L	.	2.ryy	.	2.ryy	.	0.r	.	0.r	.	4.f#/	4.a/	.	2.ryy	2.ryy	.	.
8D\	.	.	.	.	.	.	.	.	.	.	.	.	.	.	.	.
8D\	.	.	.	.	.	.	.	.	.	.	.	.	.	.	.	.
8D\	.	.	.	.	.	.	.	.	.	16a/LL	16cc\LL	.	.	.	.	.
.	.	.	.	.	.	.	.	.	.	16g/JJ	16b\JJ	.	.	.	.	.
8D\	.	.	.	.	.	.	.	.	.	4cc\	24ee\LL	.	.	.	.	.
.	.	.	.	.	.	.	.	.	.	.	24dd\	.	.	.	.	.
.	.	.	.	.	.	.	.	.	.	.	24cc\JJ	.	.	.	.	.
!	!	!	!	!	!	!	!	!	!	!	!LO:TX:a:t=problem:niepełny takt	!	!	!	!	!
8D\J	.	.	.	.	.	.	.	.	.	.	8ryy	.	.	.	.	.
=25	=25	=25	=25	=25	=25	=25	=25	=25	=25	=25	=25	=25	=25	=25	=25	=25
4G\	.	2.ryy	.	2.ryy	.	.	.	.	.	8.g\L	8.b\L	.	2.ryy	2.ryy	8.gg\L	8.bb\L
.	.	.	.	.	.	.	.	.	.	16b\Jk	16dd\Jk	.	.	.	16bb\Jk	16ddd\Jk
4GG/	.	.	.	.	.	.	.	.	.	8r	8r	.	.	.	8r	8r
.	.	.	.	.	.	.	.	.	.	8B/L	8B/L	.	.	.	8gg\L	8bb\L
4r	.	.	.	.	.	.	.	.	.	8A/	8c/	.	.	.	8aa\	8ccc\
.	.	.	.	.	.	.	.	.	.	8B/J	8d/J	.	.	.	8bb\J	8ddd\J
=26	=26	=26	=26	=26	=26	=26	=26	=26	=26	=26	=26	=26	=26	=26	=26	=26
8D\L	.	2.ryy	.	2.ryy	.	.	.	.	.	4.f#/	4.A/	.	2.ryy	2.ryy	4.ff#\	4.aa\
8D\	.	.	.	.	.	.	.	.	.	.	.	.	.	.	.	.
8D\	.	.	.	.	.	.	.	.	.	.	.	.	.	.	.	.
8D\	.	.	.	.	.	.	.	.	.	16a/LL	16c/LL	.	.	.	16aa\LL	16ccc\LL
.	.	.	.	.	.	.	.	.	.	16g/JJ	16B/JJ	.	.	.	16gg\JJ	16bb\JJ
8D\	.	.	.	.	.	.	.	.	.	8B/L	8e/L	.	.	.	8ccc\L	8eee\L
8D\J	.	.	.	.	.	.	.	.	.	16A/L	16d/L	.	.	.	16bb\L	16ddd\L
.	.	.	.	.	.	.	.	.	.	16G/JJ	16c/JJ	.	.	.	16aa\JJ	16ccc\JJ
!	!	!	!	!	!	!	!	!	!	!	!	!	!	!	!LO:LB:g=original	!LO:LB:g=original
=27	=27	=27	=27	=27	=27	=27	=27	=27	=27	=27	=27	=27	=27	=27	=27	=27
8BB/L	.	2.ryy	.	2.ryy	.	.	.	.	.	16gg\LL	16gg\LL	.	2.ryy	2.ryy	8gg\	16gg\LL
.	.	.	.	.	.	.	.	.	.	16dd\	16dd\	.	.	.	.	16dd\
8BB/	.	.	.	.	.	.	.	.	.	16bb\	16bb\	.	.	.	8r	16bb\
.	.	.	.	.	.	.	.	.	.	16aa\JJ	16aa\JJ	.	.	.	.	16aa\JJ
8BB/	.	.	.	.	.	.	.	.	.	16gg\LL	16gg\LL	.	.	.	8gg\	16gg\LL
.	.	.	.	.	.	.	.	.	.	16dd\	16dd\	.	.	.	.	16dd\
8BB/	.	.	.	.	.	.	.	.	.	16bb\	16bb\	.	.	.	8r	16bb\
.	.	.	.	.	.	.	.	.	.	16aa\JJ	16aa\JJ	.	.	.	.	16aa\JJ
8BB/	.	.	.	.	.	.	.	.	.	16gg\LL	16gg\LL	.	.	.	16gg\LL	16bb\LL
.	.	.	.	.	.	.	.	.	.	16b\	16dd\	.	.	.	16bb\	16ddd\
8BB/J	.	.	.	.	.	.	.	.	.	16a\	16cc\	.	.	.	16aa\	16ccc\
.	.	.	.	.	.	.	.	.	.	16g\JJ	16b\JJ	.	.	.	16gg\JJ	16bb\JJ
*Xtremolo	*	*	*	*	*	*	*	*	*	*	*	*	*	*	*	*
=28	=28	=28	=28	=28	=28	=28	=28	=28	=28	=28	=28	=28	=28	=28	=28	=28
!	!	!	!	!	!	!LO:N:vis=00	!	!LO:N:vis=00	!	!	!	!	!	!	!	!
8C/L	.	2.ryy	.	2.ryy	.	0.r	.	0.r	.	8cc\L	8ee\L	.	2.ryy	2.ryy	8ccc\L	8eee\L
8C/	.	.	.	.	.	.	.	.	.	16b\L	16dd\L	.	.	.	16bb\L	16ddd\L
.	.	.	.	.	.	.	.	.	.	16a\JJ	16cc\JJ	.	.	.	16aa\JJ	16ccc\JJ
8D/	.	.	.	.	.	.	.	.	.	4g/	4b\	.	.	.	4gg\	4bb\
8D/	.	.	.	.	.	.	.	.	.	.	.	.	.	.	.	.
8C/	.	.	.	.	.	.	.	.	.	4d/	4a\	.	.	.	4ff#\	4aa\
8C/J	.	.	.	.	.	.	.	.	.	.	.	.	.	.	.	.
!	!	!	!	!	!	!	!	!	!	!	!LO:LB:g=original	!	!	!	!	!
=29	=29	=29	=29	=29	=29	=29	=29	=29	=29	=29	=29	=29	=29	=29	=29	=29
*tremolo	*	*	*	*	*	*	*	*	*	*	*	*	*	*	*	*
8BB/L	.	2.ryy	.	2.ryy	.	.	.	.	.	16gg\LL	16gg\LL	.	2.ryy	2.ryy	8gg\	16gg\LL
.	.	.	.	.	.	.	.	.	.	16dd\	16dd\	.	.	.	.	16dd\
8BB/	.	.	.	.	.	.	.	.	.	16bb\	16bb\	.	.	.	8r	16bb\
.	.	.	.	.	.	.	.	.	.	16aa\JJ	16aa\JJ	.	.	.	.	16aa\JJ
8BB/	.	.	.	.	.	.	.	.	.	16gg\LL	16gg\LL	.	.	.	8gg\	16gg\LL
.	.	.	.	.	.	.	.	.	.	16dd\	16dd\	.	.	.	.	16dd\
8BB/	.	.	.	.	.	.	.	.	.	16bb\	16bb\	.	.	.	8r	16bb\
.	.	.	.	.	.	.	.	.	.	16aa\JJ	16aa\JJ	.	.	.	.	16aa\JJ
!	!	!	!	!	!	!	!	!	!	!LO:LB:g=original	!	!	!	!	!	!
8BB/	.	.	.	.	.	.	.	.	.	16gg\LL	16gg\LL	.	.	.	16b\LL	16gg\LL
.	.	.	.	.	.	.	.	.	.	16b\	16dd\	.	.	.	16bb\	16ddd\
8BB/J	.	.	.	.	.	.	.	.	.	16a\	16dd\	.	.	.	16aa\	16ccc\
.	.	.	.	.	.	.	.	.	.	16g\JJ	16b\JJ	.	.	.	16gg\JJ	16bb\JJ
*Xtremolo	*	*	*	*	*	*	*	*	*	*	*	*	*	*	*	*
=30	=30	=30	=30	=30	=30	=30	=30	=30	=30	=30	=30	=30	=30	=30	=30	=30
8C/L	.	2.ryy	.	2.ryy	.	.	.	.	.	8cc\L	8e/L	.	2.ryy	2.ryy	2.r	2.r
8C/	.	.	.	.	.	.	.	.	.	16b\L	16d/L	.	.	.	.	.
.	.	.	.	.	.	.	.	.	.	16a\JJ	16c/JJ	.	.	.	.	.
8D/	.	.	.	.	.	.	.	.	.	4d/	4B/	.	.	.	.	.
8D/	.	.	.	.	.	.	.	.	.	.	.	.	.	.	.	.
8DD/	.	.	.	.	.	.	.	.	.	4c/	4A/	.	.	.	.	.
8DD/J	.	.	.	.	.	.	.	.	.	.	.	.	.	.	.	.
!LO:LB:g=original	!	!	!	!	!	!	!	!	!	!	!	!	!	!	!	!
=31	=31	=31	=31	=31	=31	=31	=31	=31	=31	=31	=31	=31	=31	=31	=31	=31
4GG/	.	2.ryy	.	2.ryy	.	.	.	.	.	8g/L	8g/L	.	2.ryy	2.ryy	8gg\L	8gg\L
.	.	.	.	.	.	.	.	.	.	8d/J	8d/J	.	.	.	8dd\J	8dd\J
4r	.	.	.	.	.	.	.	.	.	4G/	4G/	.	.	.	4g/	4g/
4r;	.	.	.	.	.	.	.	.	.	4r	4r	.	.	.	4r;	4r
!	!	!	!	!	!	!	!	!	!	!	!	!	!	!	!	!LO:LB:g=original
=32||	=32||	=32	=32||	=32	=32||	=32|	=32||	=32|	=32||	=32||;	=32||	=32||	=32||	=32||	=32||;;	=32||;;
!	!	!	!	!	!	!	!	!	!	!	!	!LO:DY:t=p:	!	!	!LO:N:vis=00	!LO:N:vis=00
4G\	.	2.ryy	.	2.ryy	.	8b\	Be-	8dd\	Be-	4b\	4dd\	p	2.ryy	2.ryy	0.r	0.r
.	.	.	.	.	.	8b\	-ne-	8dd\	-ne-	.	.	.	.	.	.	.
4GG/	.	.	.	.	.	8g\L	-di-	8b\L	-di-	8g/L	8b\L	.	.	.	.	.
.	.	.	.	.	.	8a\J	.	8cc\J	.	8a/	8cc\	.	.	.	.	.
4r	.	.	.	.	.	8b\L	-ctus	8dd\L	-ctus	8b/	8dd\	.	.	.	.	.
.	.	.	.	.	.	8cc\J	.	8ee\J	.	8cc/J	8ee\J	.	.	.	.	.
=33	=33	=33	=33	=33	=33	=33	=33	=33	=33	=33	=33	=33	=33	=33	=33	=33
4G\	.	2.ryy	.	2.ryy	.	8b\	qui-	8dd\	qui	8b\L	8dd\L	.	2.ryy	2.ryy	.	.
.	.	.	.	.	.	8b\	-ve	8dd\	.	8b\J	8dd\J	.	.	.	.	.
4GG/	.	.	.	.	.	8g\L	ve-	8b\L	ve-	8g/L	8b\L	.	.	.	.	.
.	.	.	.	.	.	8a\J	.	8cc\J	-nit	8a/	8cc\	.	.	.	.	.
4r	.	.	.	.	.	8b\	-nit	8dd\L	.	8b/	8dd\	.	.	.	.	.
.	.	.	.	.	.	8cc\	in	8ee\J	.	8cc/J	8ee\J	.	.	.	.	.
!	!	!	!	!	!	!	!	!	!	!	!LO:LB:g=original	!	!	!	!	!
=34	=34	=34	=34	=34	=34	=34	=34	=34	=34	=34	=34	=34	=34	=34	=34	=34
*tremolo	*	*	*	*	*	*	*	*	*	*	*	*	*	*	*	*
8G\L	.	2.ryy	.	2.ryy	.	8cc\	no-	8ee\	in	8cc\L	8ee\L	.	2.ryy	2.ryy	.	.
8G\	.	.	.	.	.	8cc\	-mi-	8ee\	no-	8cc\	8ee\J	.	.	.	.	.
8G\	.	.	.	.	.	4cc\	-ne	8ee\L	-mi-	8cc\	8ee\L	.	.	.	.	.
8G\	.	.	.	.	.	.	.	8cc\J	-ne	8cc\	8cc\	.	.	.	.	.
8G\	.	.	.	.	.	8ee\L	do-	8gg\L	Do-	8ee\	8gg\	.	.	.	.	.
8G\J	.	.	.	.	.	8cc\J	.	8ee\J	.	8cc\J	8ee\J	.	.	.	.	.
!	!	!	!	!	!	!LO:LB:g=original	!	!	!	!	!	!	!	!	!	!
=35	=35	=35	=35	=35	=35	=35	=35	=35	=35	=35	=35	=35	=35	=35	=35	=35
8G\L	.	2.ryy	.	2.ryy	.	4cc\	-mi-	4ee\	-mi-	4cc\	4ee\	.	2.ryy	2.ryy	.	.
8G\	.	.	.	.	.	.	.	.	.	.	.	.	.	.	.	.
8G\	.	.	.	.	.	4b\	-ni	4dd\	-ni	4b\	4dd\	.	.	.	.	.
8G\	.	.	.	.	.	.	.	.	.	.	.	.	.	.	.	.
8G\	.	.	.	.	.	4r	.	4r	.	4r	4r	.	.	.	.	.
8G\J	.	.	.	.	.	.	.	.	.	.	.	.	.	.	.	.
!	!	!	!	!	!	!	!	!LO:LB:g=original	!	!	!	!	!	!	!	!
=36	=36	=36	=36	=36	=36	=36	=36	=36	=36	=36	=36	=36	=36	=36	=36	=36
!	!	!	!	!	!	!	!	!	!	!	!	!	!	!	!LO:N:vis=00	!LO:N:vis=00
8F#\L	.	2.ryy	.	2.ryy	.	4a\	Be-	4cc\	Be-	4a/	4cc\	.	2.ryy	2.ryy	0.r	0.r
8F#\	.	.	.	.	.	.	.	.	.	.	.	.	.	.	.	.
8F#\	.	.	.	.	.	8f#\	.	8a/	.	8d/L	8a/L	.	.	.	.	.
8F#\	.	.	.	.	.	8d\	.	8d/	.	8d/	8d/	.	.	.	.	.
8F#\	.	.	.	.	.	8f#\L	-ne-	8a\L	-ne-	8f#/	8a/	.	.	.	.	.
8F#\J	.	.	.	.	.	8a\J	.	8cc\J	.	8a/J	8cc/J	.	.	.	.	.
!	!	!	!	!	!	!	!	!	!	!LO:LB:g=original	!	!	!	!	!	!
=37	=37	=37	=37	=37	=37	=37	=37	=37	=37	=37	=37	=37	=37	=37	=37	=37
8G\L	.	2.ryy	.	2.ryy	.	8g\L	-di-	8b\L	-di-	8g/L	8b\L	.	2.ryy	2.ryy	.	.
8G\	.	.	.	.	.	8a\J	.	8cc\J	.	8a/J	8cc\J	.	.	.	.	.
8G\	.	.	.	.	.	2b\	-ctus	2dd\	-ctus	2b/	2dd\	.	.	.	.	.
8G\	.	.	.	.	.	.	.	.	.	.	.	.	.	.	.	.
8G\	.	.	.	.	.	.	.	.	.	.	.	.	.	.	.	.
8G\J	.	.	.	.	.	.	.	.	.	.	.	.	.	.	.	.
=38	=38	=38	=38	=38	=38	=38	=38	=38	=38	=38	=38	=38	=38	=38	=38	=38
8G\L	.	2.ryy	.	2.ryy	.	8g\	qui	8b\	qui	8g/L	8b\L	.	2.ryy	2.ryy	.	.
8G\	.	.	.	.	.	8b\	.	8dd\	.	8b/J	8dd\J	.	.	.	.	.
8G\	.	.	.	.	.	8b\L	ve-	16gg\LL	ve-	16ee\LL	16gg\LL	.	.	.	.	.
.	.	.	.	.	.	.	.	16ff#\	.	16dd\	16ff#\	.	.	.	.	.
8G\	.	.	.	.	.	16cc\L	.	16ee\	.	16cc\	16ee\	.	.	.	.	.
.	.	.	.	.	.	16b\JJ	.	16dd\JJ	.	16b\JJ	16dd\JJ	.	.	.	.	.
8G\	.	.	.	.	.	16b\LL	.	16dd\LL	.	16b\LL	16dd\LL	.	.	.	.	.
.	.	.	.	.	.	16a\JJ	.	16cc\	.	16a\	16cc\	.	.	.	.	.
8G\J	.	.	.	.	.	16a\LL	.	16cc\	.	16a\	16cc\	.	.	.	.	.
.	.	.	.	.	.	16g\JJ	.	16b\JJ	.	16g\JJ	16b\JJ	.	.	.	.	.
=39	=39	=39	=39	=39	=39	=39	=39	=39	=39	=39	=39	=39	=39	=39	=39	=39
!LO:TX:a:t=problem: mixed beam	!	!	!	!	!	!	!	!	!	!	!	!	!	!	!	!
8D\L	.	2.ryy	.	2.ryy	.	4g\	.	4b\	nit	4g/	4b\	.	2.ryy	2.ryy	.	.
8DD/	.	.	.	.	.	.	.	.	.	.	.	.	.	.	.	.
8D\	.	.	.	.	.	4f#\	-nit	4a\	.	4f#/	4a\	.	.	.	.	.
8D\J	.	.	.	.	.	.	.	.	.	.	.	.	.	.	.	.
4D\	.	.	.	.	.	4r	.	4r	.	4r	4r	.	.	.	.	.
!	!	!	!	!	!	!LO:LB:g=original	!	!	!	!	!LO:LB:g=original	!	!	!	!LO:LB:g=original	!
=40	=40	=40	=40	=40	=40	=40	=40	=40	=40	=40	=40	=40	=40	=40	=40	=40
!	!	!	!	!	!	!	!	!LO:TX:a:t=20	!	!LO:TX:a:t=6	!LO:TX:a:t=6	!	!	!	!	!
!	!	!	!	!	!	!LO:N:vis=00	!	!LO:N:vis=00	!	!LO:N:vis=00	!LO:N:vis=00	!	!	!	!	!
4G\	.	2.ryy	.	2.ryy	.	0.r	.	0.r	.	0.r	0.r	.	2.ryy	2.ryy	4bb\	4ddd\
4GG/	.	.	.	.	.	.	.	.	.	.	.	.	.	.	(8gg\L	8bb\L
.	.	.	.	.	.	.	.	.	.	.	.	.	.	.	8aa\	8ccc\
4r	.	.	.	.	.	.	.	.	.	.	.	.	.	.	8bb\	8ddd\
.	.	.	.	.	.	.	.	.	.	.	.	.	.	.	8ccc\J)	8eee\J
=41	=41	=41	=41	=41	=41	=41	=41	=41	=41	=41	=41	=41	=41	=41	=41	=41
8G\L	.	2.ryy	.	2.ryy	.	.	.	.	.	.	.	.	2.ryy	2.ryy	8bb\L	8ddd\L
8G\	.	.	.	.	.	.	.	.	.	.	.	.	.	.	16aa\L	16ccc\L
.	.	.	.	.	.	.	.	.	.	.	.	.	.	.	16gg\JJ	16bb\JJ
8G\	.	.	.	.	.	.	.	.	.	.	.	.	.	.	2gg\	2bb\
8G\	.	.	.	.	.	.	.	.	.	.	.	.	.	.	.	.
8G\	.	.	.	.	.	.	.	.	.	.	.	.	.	.	.	.
8G\J	.	.	.	.	.	.	.	.	.	.	.	.	.	.	.	.
!LO:LB:g=original	!	!	!	!	!	!	!	!	!	!	!	!	!	!	!	!
=42	=42	=42	=42	=42	=42	=42	=42	=42	=42	=42	=42	=42	=42	=42	=42	=42
4D\	.	2.ryy	.	2.ryy	.	.	.	.	.	.	.	.	2.ryy	2.ryy	4aa\	4ccc\
4DD/	.	.	.	.	.	.	.	.	.	.	.	.	.	.	8ff#\L	8aa\L
.	.	.	.	.	.	.	.	.	.	.	.	.	.	.	8gg\	8bb\
4r	.	.	.	.	.	.	.	.	.	.	.	.	.	.	8aa\	8ccc\
.	.	.	.	.	.	.	.	.	.	.	.	.	.	.	8bb\J	8ddd\J
=43	=43	=43	=43	=43	=43	=43	=43	=43	=43	=43	=43	=43	=43	=43	=43	=43
8D\L	.	2.ryy	.	2.ryy	.	.	.	.	.	.	.	.	2.ryy	2.ryy	8aa\L	8ccc\L
8D\	.	.	.	.	.	.	.	.	.	.	.	.	.	.	16gg\L	16bb\L
.	.	.	.	.	.	.	.	.	.	.	.	.	.	.	16ff#\JJ	16aa\JJ
8D\	.	.	.	.	.	.	.	.	.	.	.	.	.	.	2ff#\	2aa\
8D\	.	.	.	.	.	.	.	.	.	.	.	.	.	.	.	.
8D\	.	.	.	.	.	.	.	.	.	.	.	.	.	.	.	.
8D\J	.	.	.	.	.	.	.	.	.	.	.	.	.	.	.	.
*Xtremolo	*	*	*	*	*	*	*	*	*	*	*	*	*	*	*	*
=44	=44	=44	=44	=44	=44	=44	=44	=44	=44	=44	=44	=44	=44	=44	=44	=44
!	!	!	!	!	!	!LO:N:vis=00	!	!LO:N:vis=00	!	!LO:N:vis=0	!LO:N:vis=0	!	!	!	!	!
4G\	.	2.ryy	.	2.ryy	.	0.r	.	0.r	.	1.r	1.r	.	2.ryy	2.ryy	4.b\	4.gg\
4GG/	.	.	.	.	.	.	.	.	.	.	.	.	.	.	.	.
.	.	.	.	.	.	.	.	.	.	.	.	.	.	.	(8aa\L	(8ccc\L
4r	.	.	.	.	.	.	.	.	.	.	.	.	.	.	8gg\	8bb\
.	.	.	.	.	.	.	.	.	.	.	.	.	.	.	8ff#\J)	8aa\J)
=45	=45	=45	=45	=45	=45	=45	=45	=45	=45	=45	=45	=45	=45	=45	=45	=45
4G\	.	2.ryy	.	2.ryy	.	.	.	.	.	.	.	.	2.ryy	2.ryy	4.b\	4.gg\
4GG/	.	.	.	.	.	.	.	.	.	.	.	.	.	.	.	.
.	.	.	.	.	.	.	.	.	.	.	.	.	.	.	(8ccc\L	(8eee\L
4r	.	.	.	.	.	.	.	.	.	.	.	.	.	.	8bb\	8ddd\
.	.	.	.	.	.	.	.	.	.	.	.	.	.	.	8aa\J)	8ccc\J)
!	!	!	!	!	!	!	!	!	!	!	!	!	!	!	!	!LO:LB:g=original
=46	=46	=46	=46	=46	=46	=46	=46	=46	=46	=46	=46	=46	=46	=46	=46	=46
4G\	.	2.ryy	.	2.ryy	.	.	.	.	.	4r	4r	.	2.ryy	2.ryy	4bb\	4ddd\
4GG/	.	.	.	.	.	.	.	.	.	8r	8r	.	.	.	4gg\	4bb\
.	.	.	.	.	.	.	.	.	.	16gg\LL	16bb\LL	.	.	.	.	.
.	.	.	.	.	.	.	.	.	.	16dd\JJ	16gg\JJ	.	.	.	.	.
4r	.	.	.	.	.	.	.	.	.	16b/LL	16dd\LL	.	.	.	4r	4r
.	.	.	.	.	.	.	.	.	.	16g/	16b\	.	.	.	.	.
.	.	.	.	.	.	.	.	.	.	16d/	16g\	.	.	.	.	.
.	.	.	.	.	.	.	.	.	.	16B/JJ	16d\JJ	.	.	.	.	.
!	!	!	!	!	!	!	!	!	!	!	!	!	!	!	!LO:LB:g=original	!
=47	=47	=47	=47	=47	=47	=47	=47	=47	=47	=47	=47	=47	=47	=47	=47	=47
4D\	.	2.ryy	.	2.ryy	.	.	.	.	.	4r	4r	.	2.ryy	2.ryy	4aa\	4ccc\
4DD/	.	.	.	.	.	.	.	.	.	8r	8r	.	.	.	4ff#\	4aa\
.	.	.	.	.	.	.	.	.	.	16ff#\LL	16aa\LL	.	.	.	.	.
.	.	.	.	.	.	.	.	.	.	16dd\JJ	16ff#\JJ	.	.	.	.	.
4r	.	.	.	.	.	.	.	.	.	16a/LL	16cc/LL	.	.	.	4r	4r
.	.	.	.	.	.	.	.	.	.	16f#/	16a/	.	.	.	.	.
.	.	.	.	.	.	.	.	.	.	16c/	16f#/	.	.	.	.	.
.	.	.	.	.	.	.	.	.	.	16A/JJ	16c/JJ	.	.	.	.	.
!	!	!	!	!	!	!	!	!	!	!LO:LB:g=original	!	!	!	!	!	!
=48	=48	=48	=48	=48	=48	=48	=48	=48	=48	=48	=48	=48	=48	=48	=48	=48
!	!	!	!	!	!	!	!	!	!	!LO:TX:a:t=3	!LO:TX:a:t=3	!	!	!	!	!
!	!	!	!	!	!	!LO:N:vis=00	!	!LO:N:vis=00	!	!LO:N:vis=0	!LO:N:vis=0	!	!	!	!	!
4G\	.	2.ryy	.	2.ryy	.	0.r	.	0.r	.	1.r	1.r	.	2.ryy	2.ryy	8gg\L	8bb\L
.	.	.	.	.	.	.	.	.	.	.	.	.	.	.	8aa\	8ccc\
4r	.	.	.	.	.	.	.	.	.	.	.	.	.	.	8bb\	8ddd\
.	.	.	.	.	.	.	.	.	.	.	.	.	.	.	8ccc\	8eee\
4r	.	.	.	.	.	.	.	.	.	.	.	.	.	.	8bb\	8ddd\
.	.	.	.	.	.	.	.	.	.	.	.	.	.	.	8aa\J	8ccc\J
=49	=49	=49	=49	=49	=49	=49	=49	=49	=49	=49	=49	=49	=49	=49	=49	=49
*	*	*	*	*	*	*	*	*	*	*	*	*	*	*	*Xtuplet	*Xtuplet
!LO:TX:a:t=problem: mixed beam	!	!	!	!	!	!	!	!	!	!	!	!	!	!	!	!
8G\L	.	2.ryy	.	2.ryy	.	.	.	.	.	.	.	.	2.ryy	2.ryy	24gg\LL	24bb\LL
.	.	.	.	.	.	.	.	.	.	.	.	.	.	.	24ff#\	24aa\
.	.	.	.	.	.	.	.	.	.	.	.	.	.	.	24gg\JJ	24bb\JJ
8G\	.	.	.	.	.	.	.	.	.	.	.	.	.	.	24aa\LL	24ccc\LL
.	.	.	.	.	.	.	.	.	.	.	.	.	.	.	24gg\	24bb\
.	.	.	.	.	.	.	.	.	.	.	.	.	.	.	24ff#\JJ	24aa\JJ
8C/	.	.	.	.	.	.	.	.	.	.	.	.	.	.	4b\	4gg\
8C/	.	.	.	.	.	.	.	.	.	.	.	.	.	.	.	.
8D/	.	.	.	.	.	.	.	.	.	.	.	.	.	.	4ccT\	4aaT\
8D/J	.	.	.	.	.	.	.	.	.	.	.	.	.	.	.	.
=50	=50	=50	=50	=50	=50	=50	=50	=50	=50	=50	=50	=50	=50	=50	=50	=50
4GG/	.	2.ryy	.	2.ryy	.	.	.	.	.	2.r	2.r	.	2.ryy	2.ryy	8b\L	8gg\L
.	.	.	.	.	.	.	.	.	.	.	.	.	.	.	8dd\J	8dd\J
4r	.	.	.	.	.	.	.	.	.	.	.	.	.	.	4b\	4g/
4r	.	.	.	.	.	.	.	.	.	.	.	.	.	.	4r	4r
!LO:LB:g=original	!	!	!	!	!	!	!	!	!	!	!	!	!	!	!	!
=51	=51	=51	=51	=51	=51	=51	=51	=51	=51	=51	=51	=51	=51	=51	=51	=51
!	!	!	!	!	!	!	!	!	!	!	!	!	!	!	!LO:N:vis=00	!LO:N:vis=00
4G\	.	2.ryy	.	2.ryy	.	.	.	.	.	4b\	4dd\	.	2.ryy	2.ryy	0.r	0.r
!	!	!	!	!	!	!	!	!	!	!	!	!LO:DY:t=f:	!	!	!	!
4GG/	.	.	.	.	.	.	.	.	.	8b\L	8b\L	f	.	.	.	.
.	.	.	.	.	.	.	.	.	.	16gg\L	16bb\L	.	.	.	.	.
.	.	.	.	.	.	.	.	.	.	16dd\JJ	16gg\JJ	.	.	.	.	.
4r	.	.	.	.	.	.	.	.	.	16b/LL	16dd/LL	.	.	.	.	.
.	.	.	.	.	.	.	.	.	.	16g/	16b/	.	.	.	.	.
.	.	.	.	.	.	.	.	.	.	16d/	16g/	.	.	.	.	.
.	.	.	.	.	.	.	.	.	.	16B/JJ	16d/JJ	.	.	.	.	.
=52	=52	=52	=52	=52	=52	=52	=52	=52	=52	=52	=52	=52	=52	=52	=52	=52
!	!	!	!	!	!	!LO:N:vis=00	!	!LO:N:vis=00	!	!	!	!	!	!	!	!
4D\	.	2.ryy	.	2.ryy	.	0.r	.	0.r	.	4a/	4cc\	.	2.ryy	2.ryy	.	.
!	!	!	!	!	!	!	!	!	!	!LO:TX:a:t=problem: mixed bead	!	!	!	!	!	!
4DD/	.	.	.	.	.	.	.	.	.	8f#/L	8a\L	.	.	.	.	.
.	.	.	.	.	.	.	.	.	.	16ff#\L	16aa\L	.	.	.	.	.
.	.	.	.	.	.	.	.	.	.	16dd\JJ	16ff#\JJ	.	.	.	.	.
!	!	!	!	!	!	!	!	!	!	!	!LO:LB:g=original	!	!	!	!	!
4r	.	.	.	.	.	.	.	.	.	16a/LL	16cc/LL	.	.	.	.	.
.	.	.	.	.	.	.	.	.	.	16f#/	16a/	.	.	.	.	.
.	.	.	.	.	.	.	.	.	.	16c/	16f#/	.	.	.	.	.
.	.	.	.	.	.	.	.	.	.	16A/JJ	16c/JJ	.	.	.	.	.
=53	=53	=53	=53	=53	=53	=53	=53	=53	=53	=53	=53	=53	=53	=53	=53	=53
4G\	.	2.ryy	.	2.ryy	.	.	.	.	.	8g\L	8b\L	.	2.ryy	2.ryy	.	.
.	.	.	.	.	.	.	.	.	.	8a\	8cc\	.	.	.	.	.
4r	.	.	.	.	.	.	.	.	.	8b\	8dd\	.	.	.	.	.
.	.	.	.	.	.	.	.	.	.	8cc\	8ee\J	.	.	.	.	.
8r	.	.	.	.	.	.	.	.	.	8b\	8dd\L	.	.	.	.	.
8C/	.	.	.	.	.	.	.	.	.	8a\J	8cc\J	.	.	.	.	.
=54	=54	=54	=54	=54	=54	=54	=54	=54	=54	=54	=54	=54	=54	=54	=54	=54
*tremolo	*	*	*	*	*	*	*	*	*	*	*tuplet	*	*	*	*	*
!	!	!	!	!	!	!	!	!	!	!	!LO:TX:a:t=problem:2 pod klamrą łukową	!	!	!	!	!
8D\L	.	2.ryy	.	2.ryy	.	.	.	.	.	8g/L	24b\LL	.	2.ryy	2.ryy	.	.
.	.	.	.	.	.	.	.	.	.	.	24a\	.	.	.	.	.
.	.	.	.	.	.	.	.	.	.	.	24b\JJ	.	.	.	.	.
8D\	.	.	.	.	.	.	.	.	.	8g/J	24cc\LL	.	.	.	.	.
.	.	.	.	.	.	.	.	.	.	.	24b\	.	.	.	.	.
.	.	.	.	.	.	.	.	.	.	.	24a\JJ	.	.	.	.	.
8D\	.	.	.	.	.	.	.	.	.	4c/	4g/	.	.	.	.	.
8D\	.	.	.	.	.	.	.	.	.	.	.	.	.	.	.	.
8D\	.	.	.	.	.	.	.	.	.	4d/	4aT/	.	.	.	.	.
8D\J	.	.	.	.	.	.	.	.	.	.	.	.	.	.	.	.
=55	=55	=55	=55	=55	=55	=55	=55	=55	=55	=55	=55	=55	=55	=55	=55	=55
!	!	!	!	!	!	!	!	!	!	!	!	!	!	!	!LO:N:vis=00	!LO:N:vis=00
4GG/	.	2.ryy	.	2.ryy	.	.	.	.	.	8g/L	8g/L	.	2.ryy	2.ryy	0.r	0.r
.	.	.	.	.	.	.	.	.	.	8d/J	8d/J	.	.	.	.	.
4r	.	.	.	.	.	.	.	.	.	4G/	4G/	.	.	.	.	.
4r	.	.	.	.	.	.	.	.	.	4r	4r	.	.	.	.	.
!	!	!	!	!	!	!	!	!	!	!LO:LB:g=original	!	!	!	!	!	!
=56	=56	=56	=56	=56	=56	=56	=56	=56	=56	=56	=56	=56	=56	=56	=56	=56
!	!	!	!	!	!	!	!	!LO:N:vis=00	!	!	!	!LO:DY:t=p:	!	!	!	!
4D\	.	2.ryy	.	2.ryy	.	4a\	Be-	0.r	.	4ff#\	4aa\	p	2.ryy	2.ryy	.	.
4DD/	.	.	.	.	.	8f#\L	.	.	.	8dd\L	8ff#\L	.	.	.	.	.
.	.	.	.	.	.	8g\J	.	.	.	8ee\	8gg\	.	.	.	.	.
4r	.	.	.	.	.	8a\	.	.	.	8ff#\	8aa\	.	.	.	.	.
.	.	.	.	.	.	8b\	-ne-	.	.	8gg\J	8bb\J	.	.	.	.	.
!	!	!	!	!	!	!	!	!	!	!	!LO:LB:g=original	!	!	!	!	!
=57	=57	=57	=57	=57	=57	=57	=57	=57	=57	=57	=57	=57	=57	=57	=57	=57
4D\	.	2.ryy	.	2.ryy	.	8b\L	-di-	.	.	8gg\L	8bb\L	.	2.ryy	2.ryy	.	.
.	.	.	.	.	.	8a\J	.	.	.	8ff#\J	8aa\J	.	.	.	.	.
4DD/	.	.	.	.	.	2a\	-ctus	.	.	2ff#\	2aa\	.	.	.	.	.
4r	.	.	.	.	.	.	.	.	.	.	.	.	.	.	.	.
=58	=58	=58	=58	=58	=58	=58	=58	=58	=58	=58	=58	=58	=58	=58	=58	=58
8AA/L	.	2.ryy	.	2.ryy	.	8g\	qui	.	.	8ee\L	8gg\L	.	2.ryy	2.ryy	.	.
8AA/	.	.	.	.	.	8e\	.	.	.	8cc\	8ee\	.	.	.	.	.
8AA/	.	.	.	.	.	8c\L	ve-	.	.	8a\	8cc\	.	.	.	.	.
8AA/	.	.	.	.	.	8e\J	.	.	.	8cc\J	8ee\J	.	.	.	.	.
8AA/	.	.	.	.	.	16g\LL	.	.	.	16ee\LL	16gg\LL	.	.	.	.	.
.	.	.	.	.	.	16b\	.	.	.	16gg\	16bb\	.	.	.	.	.
8AA/J	.	.	.	.	.	16a\	.	.	.	16ff#\	16aa\	.	.	.	.	.
.	.	.	.	.	.	16g\JJ	.	.	.	16ee\JJ	16gg\JJ	.	.	.	.	.
=59	=59	=59	=59	=59	=59	=59	=59	=59	=59	=59	=59	=59	=59	=59	=59	=59
!	!	!	!	!	!	!	!	!	!	!	!	!	!	!	!LO:N:vis=00	!LO:N:vis=00
8D\L	.	2.ryy	.	2.ryy	.	8g\L	.	.	.	8ee\L	8gg\L	.	2.ryy	2.ryy	0.r	0.r
8D\	.	.	.	.	.	8f#\J	.	.	.	8dd\J	8ff#\J	.	.	.	.	.
8D\	.	.	.	.	.	2f#\	-nit	.	.	2dd\	2ff#\	.	.	.	.	.
8D\	.	.	.	.	.	.	.	.	.	.	.	.	.	.	.	.
8D\	.	.	.	.	.	.	.	.	.	.	.	.	.	.	.	.
8D\J	.	.	.	.	.	.	.	.	.	.	.	.	.	.	.	.
!	!	!	!	!	!	!	!	!LO:PB:g=original	!	!	!	!	!	!	!	!
*Xtremolo	*	*	*	*	*	*	*	*	*	*	*	*	*	*	*	*
=60	=60	=60	=60	=60	=60	=60	=60	=60	=60	=60	=60	=60	=60	=60	=60	=60
!	!	!	!	!	!	!LO:N:vis=00	!	!	!	!	!	!	!	!	!	!
4G\	.	2.ryy	.	2.ryy	.	0.r	.	4dd\	Be-	4b\	4dd\	.	2.ryy	2.ryy	.	.
4GG/	.	.	.	.	.	.	.	8b\L	.	8g\L	8b\L	.	.	.	.	.
.	.	.	.	.	.	.	.	8cc\J	.	8a\	8cc\	.	.	.	.	.
4r	.	.	.	.	.	.	.	8dd\	-ne-	8b\	8dd\	.	.	.	.	.
.	.	.	.	.	.	.	.	8ee\	.	8cc\J	8ee\J	.	.	.	.	.
!LO:LB:g=original	!	!	!	!	!	!	!	!	!	!	!	!	!	!	!	!
=61	=61	=61	=61	=61	=61	=61	=61	=61	=61	=61	=61	=61	=61	=61	=61	=61
4G\	.	2.ryy	.	2.ryy	.	.	.	8ee\L	-di-	8cc\L	8ee\L	.	2.ryy	2.ryy	.	.
.	.	.	.	.	.	.	.	8dd\J	.	8b\J	8dd\J	.	.	.	.	.
4GG/	.	.	.	.	.	.	.	2dd\	-ctus	2b\	2dd\	.	.	.	.	.
4r	.	.	.	.	.	.	.	.	.	.	.	.	.	.	.	.
=62	=62	=62	=62	=62	=62	=62	=62	=62	=62	=62	=62	=62	=62	=62	=62	=62
8F#\L	.	2.ryy	.	2.ryy	.	.	.	4cc\	qui	4.a/	4cc\	.	2.ryy	2.ryy	.	.
8F#\	.	.	.	.	.	.	.	.	.	.	.	.	.	.	.	.
8D\	.	.	.	.	.	.	.	8a\L	.	.	8a\L	.	.	.	.	.
8D\	.	.	.	.	.	.	.	8b\J	.	16f#/LL	8b\J	.	.	.	.	.
.	.	.	.	.	.	.	.	.	.	16g/JJ	.	.	.	.	.	.
8F#\	.	.	.	.	.	.	.	16cc\LL	.	16a/LL	16cc\LL	.	.	.	.	.
.	.	.	.	.	.	.	.	16ee\JJ	.	16cc/	16ee\	.	.	.	.	.
8F#\J	.	.	.	.	.	.	.	16dd\LL	ve-	16b/	16dd\	.	.	.	.	.
.	.	.	.	.	.	.	.	16cc\JJ	.	16a/JJ	16cc\JJ	.	.	.	.	.
!	!	!	!	!	!	!	!	!	!	!LO:LB:g=original	!LO:LB:g=original	!	!	!	!	!
=63	=63	=63	=63	=63	=63	=63	=63	=63	=63	=63	=63	=63	=63	=63	=63	=63
*tremolo	*	*	*	*	*	*	*	*	*	*	*	*	*	*	*	*
!	!	!	!	!	!	!LO:TX:a:t=problem:custos b	!	!	!	!	!	!	!	!	!LO:N:vis=00	!LO:N:vis=00
8G\L	.	2.ryy	.	2.ryy	.	.	.	8cc\L	nit	8a/L	8cc\L	.	2.ryy	2.ryy	0.r	0.r
8G\	.	.	.	.	.	.	.	8b\J	.	8g/J	8b\J	.	.	.	.	.
8G\	.	.	.	.	.	.	.	2b\	.	2g/	2b\	.	.	.	.	.
8G\	.	.	.	.	.	.	.	.	.	.	.	.	.	.	.	.
8G\	.	.	.	.	.	.	.	.	.	.	.	.	.	.	.	.
8G\J	.	.	.	.	.	.	.	.	.	.	.	.	.	.	.	.
!	!	!	!	!	!	!LO:LB:g=original	!	!	!	!	!	!	!	!	!	!
=64	=64	=64	=64	=64	=64	=64	=64	=64	=64	=64	=64	=64	=64	=64	=64	=64
*	*	*	*	*	*	*	*	*	*	*	*tremolo	*	*	*	*	*
4G\	.	2.ryy	.	2.ryy	.	4b\	Be-	4dd\	Be-	8b/L	8dd\L	.	2.ryy	2.ryy	.	.
.	.	.	.	.	.	.	.	.	.	8b/	8dd\	.	.	.	.	.
4GG/	.	.	.	.	.	16g\LL	-ne-	16b\LL	-ne-	8b/	8dd\	.	.	.	.	.
.	.	.	.	.	.	16b\JJ	.	16dd\	.	.	.	.	.	.	.	.
.	.	.	.	.	.	16a\LL	-di-	16cc\	-di-	8b/	8dd\	.	.	.	.	.
.	.	.	.	.	.	16cc\JJ	.	16ee\JJ	.	.	.	.	.	.	.	.
4r	.	.	.	.	.	4b\	-ctus	4dd\	-ctus	8b/	8dd\	.	.	.	.	.
.	.	.	.	.	.	.	.	.	.	8b/J	8dd\J	.	.	.	.	.
!	!	!	!	!	!	!	!	!LO:LB:g=original	!	!	!	!	!	!	!	!
=65	=65	=65	=65	=65	=65	=65	=65	=65	=65	=65	=65	=65	=65	=65	=65	=65
8G\L	.	2.ryy	.	2.ryy	.	8b\	qui	8dd\	qui	8b/L	8dd\L	.	2.ryy	2.ryy	.	.
8G\	.	.	.	.	.	8b\	.	8dd\	.	8b/	8dd\	.	.	.	.	.
8G\	.	.	.	.	.	8cc\L	ve-	8ee\L	.	8b/	8dd\	.	.	.	.	.
8G\	.	.	.	.	.	8b\J	.	8dd\J	.	8b/	8dd\	.	.	.	.	.
8G\	.	.	.	.	.	8cc\L	-nit	8ee\L	.	8cc/	8ee\	.	.	.	.	.
8G\J	.	.	.	.	.	8b\J	in	8dd\J	.	8b/J	8dd\J	.	.	.	.	.
=66	=66	=66	=66	=66	=66	=66	=66	=66	=66	=66	=66	=66	=66	=66	=66	=66
8G\L	.	2.ryy	.	2.ryy	.	8b\L	no-	8dd\L	ve-	8b\L	8dd\L	.	2.ryy	2.ryy	.	.
8G\	.	.	.	.	.	16a\L	-mi-	16cc\L	.	16a\L	16cc\L	.	.	.	.	.
.	.	.	.	.	.	16g\JJ	.	16b\JJ	.	16g\JJ	16b\JJ	.	.	.	.	.
.	.	.	.	.	.	.	.	.	.	8qqg/	.	.	.	.	.	.
8G\	.	.	.	.	.	2a\	-ne	2cc\	-nit	2a/	2cc\	.	.	.	.	.
8G\	.	.	.	.	.	.	.	.	.	.	.	.	.	.	.	.
8G\	.	.	.	.	.	.	.	.	.	.	.	.	.	.	.	.
8G\J	.	.	.	.	.	.	.	.	.	.	.	.	.	.	.	.
=67	=67	=67	=67	=67	=67	=67	=67	=67	=67	=67	=67	=67	=67	=67	=67	=67
!	!	!	!	!	!	!	!	!	!	!	!	!	!	!	!LO:N:vis=0	!LO:N:vis=0
8D\L	.	2.ryy	.	2.ryy	.	8a\	Be-	8cc\	Be-	8a/L	8cc\L	.	2.ryy	2.ryy	1.r	1.r
8D\	.	.	.	.	.	8a\	-ne-	8cc\	-ne-	8a/	8cc\	.	.	.	.	.
8D\	.	.	.	.	.	16f#\LL	-di-	16a\LL	-di-	8a/	8cc\	.	.	.	.	.
.	.	.	.	.	.	16a\JJ	.	16cc\JJ	.	.	.	.	.	.	.	.
8D\	.	.	.	.	.	16g\LL	.	16b\LL	.	8a/	8cc\	.	.	.	.	.
.	.	.	.	.	.	16b\JJ	.	16dd\JJ	.	.	.	.	.	.	.	.
8D\	.	.	.	.	.	4a\	-ctus	4cc\	-ctus	8a/	8cc\	.	.	.	.	.
8D\J	.	.	.	.	.	.	.	.	.	8a/J	8cc\J	.	.	.	.	.
*	*	*	*	*	*	*	*	*	*	*	*Xtremolo	*	*	*	*	*
=68	=68	=68	=68	=68	=68	=68	=68	=68	=68	=68	=68	=68	=68	=68	=68	=68
8D\L	.	2.ryy	.	2.ryy	.	8a\	qui	8cc\	qui	8a/L	8cc\L	.	2.ryy	2.ryy	.	.
8D\	.	.	.	.	.	8a\	.	8cc\	.	8a/	8cc\	.	.	.	.	.
8D\	.	.	.	.	.	8b\L	ve-	8dd\L	ve-	8a/	8cc\	.	.	.	.	.
8D\	.	.	.	.	.	8a\J	.	8cc\J	.	8a/	8cc\	.	.	.	.	.
8D\	.	.	.	.	.	8b\L	.	8dd\L	.	8b/	8dd\	.	.	.	.	.
8D\J	.	.	.	.	.	8a\J	.	8cc\J	.	8a/J	8cc\J	.	.	.	.	.
!	!	!	!	!	!	!LO:LB:g=original	!	!LO:LB:g=original	!	!	!	!	!	!	!	!
=69	=69	=69	=69	=69	=69	=69	=69	=69	=69	=69	=69	=69	=69	=69	=69	=69
8G\L	.	2.ryy	.	2.ryy	.	8a\L	.	8cc\L	.	8a/L	8cc\L	.	2.r	2.ryy	2.r	2.r
8G\	.	.	.	.	.	16g\L	.	16b\L	.	16g/L	16b\L	.	.	.	.	.
.	.	.	.	.	.	16f#\JJ	.	16a\JJ	.	16f#/JJ	16a\JJ	.	.	.	.	.
8G\	.	.	.	.	.	2g\	-nit	2b\	-nit	2g/	2b\	.	.	.	.	.
8G\	.	.	.	.	.	.	.	.	.	.	.	.	.	.	.	.
8G\	.	.	.	.	.	.	.	.	.	.	.	.	.	.	.	.
8G\J	.	.	.	.	.	.	.	.	.	.	.	.	.	.	.	.
!	!	!	!	!	!	!	!	!	!	!LO:LB:g=original	!LO:LB:g=original	!	!	!	!LO:LB:g=original	!LO:LB:g=original
*Xtremolo	*	*	*	*	*	*	*	*	*	*	*	*	*	*	*	*
=70	=70	=70	=70	=70	=70	=70	=70	=70	=70	=70	=70	=70	=70	=70	=70	=70
4r	.	2.ryy	.	2.ryy	.	4b\	in	4dd\	in	4r	4r	.	2.ryy	2.ryy	4r	4r
4G\	.	.	.	.	.	4g\	no-	4b\	no-	8r	8r	.	.	.	8r	8r
.	.	.	.	.	.	.	.	.	.	16gg\LL	16bb\LL	.	.	.	16gg\LL	16bb\LL
.	.	.	.	.	.	.	.	.	.	16dd\JJ	16gg\JJ	.	.	.	16bb\JJ	16gg\JJ
4GG/	.	.	.	.	.	4r	.	4r	.	16dd\LL	16dd/LL	.	.	.	16bb\LL	16ddd\LL
.	.	.	.	.	.	.	.	.	.	16b\	16b/	.	.	.	16gg\	16bb\
.	.	.	.	.	.	.	.	.	.	16b\	16g/	.	.	.	16dd\	16gg\
.	.	.	.	.	.	.	.	.	.	16g\JJ	16d/JJ	.	.	.	16b\JJ	16dd\JJ
=71	=71	=71	=71	=71	=71	=71	=71	=71	=71	=71	=71	=71	=71	=71	=71	=71
4r	.	2.ryy	.	2.ryy	.	4a\	-mi-	4cc\	-mi-	4r	4r	.	2.ryy	2.ryy	4r	4r
4D\	.	.	.	.	.	4f#\	-ne	4a\	-ne	8r	8r	.	.	.	8r	8r
.	.	.	.	.	.	.	.	.	.	16ff#\LL	16aa\LL	.	.	.	16ff#\LL	16aa\LL
.	.	.	.	.	.	.	.	.	.	16dd\JJ	16ff#\JJ	.	.	.	16dd\JJ	16ff#\JJ
4DD/	.	.	.	.	.	4r	.	4r	.	16a/LL	16cc/LL	.	.	.	16aa\LL	16ccc\LL
.	.	.	.	.	.	.	.	.	.	16f#/	16a/	.	.	.	16ff#\	16aa\
.	.	.	.	.	.	.	.	.	.	16f#/	16f#/	.	.	.	16dd\	16ff#\
.	.	.	.	.	.	.	.	.	.	16d/JJ	16c/JJ	.	.	.	16a\JJ	16dd\JJ
!LO:LB:g=original	!	!	!	!	!	!	!	!	!	!	!	!	!	!	!	!
=72	=72	=72	=72	=72	=72	=72	=72	=72	=72	=72	=72	=72	=72	=72	=72	=72
!	!	!	!	!	!	!	!	!	!	!	!LO:TX:a:t=3	!	!	!	!LO:N:vis=0	!LO:N:vis=0
!	!	!	!	!	!	!	!	!	!	!LO:N:vis=0	!LO:N:vis=0	!	!	!	!	!
4G\	.	2.ryy	.	2.ryy	.	8g\	in	8b\	in	1.r	1.r	.	2.ryy	2.ryy	1.r	1.r
.	.	.	.	.	.	8a\	no-	8cc\	.	.	.	.	.	.	.	.
4r	.	.	.	.	.	8b\L	.	8dd\L	no-	.	.	.	.	.	.	.
.	.	.	.	.	.	8cc\	-mi-	8ee\	.	.	.	.	.	.	.	.
4r	.	.	.	.	.	8b\	-i-	8dd\	-mi-	.	.	.	.	.	.	.
.	.	.	.	.	.	8a\J	-ne	8cc\J	-ne	.	.	.	.	.	.	.
=73	=73	=73	=73	=73	=73	=73	=73	=73	=73	=73	=73	=73	=73	=73	=73	=73
8G\L	.	2.ryy	.	2.ryy	.	8g\L	do-	8b\L	Do-	.	.	.	2.ryy	2.ryy	.	.
8G\	.	.	.	.	.	16d\L	.	16a\L	.	.	.	.	.	.	.	.
.	.	.	.	.	.	16B\JJ	.	16g\JJ	.	.	.	.	.	.	.	.
!	!	!	!	!	!	!	!	!LO:TX:a:t=t	!	!	!	!	!	!	!	!
8C\	.	.	.	.	.	2dT\	-mi-	2a\	-mi-	.	.	.	.	.	.	.
8C\	.	.	.	.	.	.	.	.	.	.	.	.	.	.	.	.
8D\	.	.	.	.	.	.	.	.	.	.	.	.	.	.	.	.
8D\J	.	.	.	.	.	.	.	.	.	.	.	.	.	.	.	.
=74	=74	=74	=74	=74	=74	=74	=74	=74	=74	=74	=74	=74	=74	=74	=74	=74
!LO:TX:a:t=problem: mixed beam	!	!	!	!	!	!	!	!	!	!LO:TX:a:t=Da Capo Allegro	!LO:TX:a:t=Da Capo al Segno	!	!	!	!LO:TX:a:t=Da Capo ad Signum	!LO:TX:a:t=Da Capo al Segno
.	.	.	.	.	.	8qqc/	.	.	.	.	.	.	.	.	.	.
8GG/L	.	2.ryy	.	2.ryy	.	4B/	-ni	4g\	-ni	2.r	2.r	.	2.ryy	2.ryy	2.r	2.r
8G\J	.	.	.	.	.	.	.	.	.	.	.	.	.	.	.	.
4GG/	.	.	.	.	.	4r	.	4r	.	.	.	.	.	.	.	.
!LO:B=Da CapoTX:a:t:	!	!	!	!	!	!	!	!	!	!	!	!	!	!	!	!
4r	.	.	.	.	.	4r	.	4r	.	.	.	.	.	.	.	.
!	!	!	!	!	!	!	!	!	!	!LO:LB:g=original	!	!	!	!	!LO:PB:g=original	!
=75	=75	=75	=75	=75	=75	=75	=75	=75	=75	=75	=75||	=75	=75	=75	=75||;;	=75
!	!	!	!	!	!	!	!	!LO:N:vis=00	!	!LO:TX:b:t=Benedictus	!	!	!	!	!	!
!	!	!	!	!	!	!LO:N:vis=00	!	!LO:TX:a:t=pauz 20	!	!LO:TX:a:t=Andante	!LO:TX:a:t=andante	!	!	!	!	!
4G\	.	2.ryy	.	2.ryy	.	0.r	.	2.r	.	4b\	4dd\	.	2.ryy	2.ryy	4bb\	4ddd\
4GG/	.	.	.	.	.	.	.	.	.	8g\L	8b\L	.	.	.	8gg\L	8bb\L
.	.	.	.	.	.	.	.	.	.	8a\	8cc\	.	.	.	8aa\	8ccc\
4r	.	.	.	.	.	.	.	.	.	8b\	8dd\	.	.	.	8bb\	8ddd\
.	.	.	.	.	.	.	.	.	.	8cc\J	8ee\J	.	.	.	8ccc\J	8eee\J
=76	=76	=76	=76	=76	=76	=76	=76	=76	=76	=76	=76	=76	=76	=76	=76	=76
.	.	.	.	.	.	.	.	.	.	8qqcc/	8qqee/	.	.	.	.	.
4G\	.	2.ryy	.	2.ryy	.	.	.	2.r	.	4b\	4dd\	.	2.ryy	2.ryy	4bb\	4ddd\
4GG/	.	.	.	.	.	.	.	.	.	8g/L	8b\L	.	.	.	8gg\L	8bb\L
.	.	.	.	.	.	.	.	.	.	8a/	8cc\	.	.	.	8aa\	8ccc\
4r	.	.	.	.	.	.	.	.	.	8b/	8dd\	.	.	.	8bb\	8ddd\
.	.	.	.	.	.	.	.	.	.	8cc/J	8ee\J	.	.	.	8ccc\J	8eee\J
=77	=77	=77	=77	=77	=77	=77	=77	=77	=77	=77	=77	=77	=77	=77	=77	=77
*tremolo	*	*	*	*	*	*	*	*	*	*	*	*	*	*	*	*
8G\L	.	2.ryy	.	2.ryy	.	.	.	2.r	.	16g\LL	(16b\LL	.	2.ryy	2.ryy	4bb\	4ddd\
.	.	.	.	.	.	.	.	.	.	16ee\	16gg\)	.	.	.	.	.
8G\	.	.	.	.	.	.	.	.	.	16ee\	(16gg\	.	.	.	.	.
.	.	.	.	.	.	.	.	.	.	16dd\JJ	16ff#\JJ)	.	.	.	.	.
8G\	.	.	.	.	.	.	.	.	.	16dd\LL	(16ff#\LL	.	.	.	4r	4r
.	.	.	.	.	.	.	.	.	.	16cc\	16ee\)	.	.	.	.	.
8G\	.	.	.	.	.	.	.	.	.	16cc\	(16ee\	.	.	.	.	.
.	.	.	.	.	.	.	.	.	.	16b\JJ	16dd\JJ)	.	.	.	.	.
8G\	.	.	.	.	.	.	.	.	.	16b/LL	(16dd\LL	.	.	.	4r	4r
.	.	.	.	.	.	.	.	.	.	16a/	16cc\)	.	.	.	.	.
8G\J	.	.	.	.	.	.	.	.	.	16a/	(16cc\	.	.	.	.	.
.	.	.	.	.	.	.	.	.	.	16g/JJ	16b\JJ)	.	.	.	.	.
=78	=78	=78	=78	=78	=78	=78	=78	=78	=78	=78	=78	=78	=78	=78	=78	=78
!LO:TX:a:t=problem: mixed beam	!	!	!	!	!	!	!	!	!	!	!	!	!	!	!	!
8G\L	.	2.ryy	.	2.ryy	.	.	.	2.r	.	8g/L	8b\L	.	2.ryy	2.ryy	8gg\L	8bb\L
8GG/J	.	.	.	.	.	.	.	.	.	16a/L	16cc\L	.	.	.	16aa\L	16ccc\L
.	.	.	.	.	.	.	.	.	.	16b/JJ	16dd\JJ	.	.	.	16bb\JJ	16ddd\JJ
8D\L	.	.	.	.	.	.	.	.	.	4.g/	4.b\	.	.	.	4.gg\	4.bb\
8D\	.	.	.	.	.	.	.	.	.	.	.	.	.	.	.	.
8D\	.	.	.	.	.	.	.	.	.	.	.	.	.	.	.	.
8D\J	.	.	.	.	.	.	.	.	.	8f#/	8a\	.	.	.	8ff#\	8aa\
!	!	!	!	!	!	!	!	!	!	!	!LO:LB:g=original	!	!	!	!	!
=79	=79	=79	=79	=79	=79	=79	=79	=79	=79	=79	=79	=79	=79	=79	=79	=79
!	!	!	!	!	!	!LO:N:vis=00	!	!	!	!	!	!	!	!	!	!
4D\	.	2.ryy	.	2.ryy	.	0.r	.	2.r	.	8d/L	8d/L	.	2.ryy	2.ryy	2.r	2.r
!	!	!	!	!	!	!	!	!	!	!	!LO:TUP:b	!	!	!	!	!
!	!	!	!	!	!	!	!	!	!	!	!LO:TX:a:t=problem:3 pod klamrą łukową	!	!	!	!	!
.	.	.	.	.	.	.	.	.	.	24f#/L	24f#/L	.	.	.	.	.
.	.	.	.	.	.	.	.	.	.	24e/	24e/	.	.	.	.	.
.	.	.	.	.	.	.	.	.	.	24d/JJ	24d/JJ	.	.	.	.	.
!	!	!	!	!	!	!	!	!	!	!LO:LB:g=original	!	!	!	!	!	!
4r	.	.	.	.	.	.	.	.	.	16d/LL	16d/LL	.	.	.	.	.
.	.	.	.	.	.	.	.	.	.	16f#/	16f#/	.	.	.	.	.
.	.	.	.	.	.	.	.	.	.	16f#/	16a/	.	.	.	.	.
.	.	.	.	.	.	.	.	.	.	16a/JJ	16cc/JJ	.	.	.	.	.
4D\	.	.	.	.	.	.	.	.	.	16a/LL	16dd\LL	.	.	.	.	.
.	.	.	.	.	.	.	.	.	.	16f#/	16a\	.	.	.	.	.
.	.	.	.	.	.	.	.	.	.	16g/	16b\	.	.	.	.	.
.	.	.	.	.	.	.	.	.	.	16a/JJ	16cc\JJ	.	.	.	.	.
=80	=80	=80	=80	=80	=80	=80	=80	=80	=80	=80	=80	=80	=80	=80	=80	=80
4G\	.	2.ryy	.	2.ryy	.	.	.	2.r	.	8G/L	8b\L	.	2.ryy	2.ryy	(8gg\L	8bb\L
.	.	.	.	.	.	.	.	.	.	8B/	8dd\J	.	.	.	8bb\)	8ddd\J
4GG/	.	.	.	.	.	.	.	.	.	8B/	8dd\L	.	.	.	(8bb\	8ddd\L
.	.	.	.	.	.	.	.	.	.	8A/	8cc\	.	.	.	8aa\)	8ccc\
4r	.	.	.	.	.	.	.	.	.	8A/	8cc\	.	.	.	(8aa\	8ccc\
.	.	.	.	.	.	.	.	.	.	8G/J	8b\J	.	.	.	8gg\J)	8bb\J
!	!	!	!	!	!	!	!	!	!	!	!	!	!	!	!LO:LB:g=original	!LO:LB:g=original
=81	=81	=81	=81	=81	=81	=81	=81	=81	=81	=81	=81	=81	=81	=81	=81	=81
!	!	!	!	!	!	!	!	!	!	!LO:TX:a:t=problem:repetycja tt.79-80	!	!	!	!	!LO:TX:a:t=1.	!
4D\	.	2.ryy	.	2.ryy	.	.	.	2.r	.	8d/Lyy	8d/L	.	2.ryy	2.ryy	2.r	2.r
.	.	.	.	.	.	.	.	.	.	24f#/Lyy	24f#/L	.	.	.	.	.
.	.	.	.	.	.	.	.	.	.	24e/yy	24e/	.	.	.	.	.
!	!	!	!	!	!	!	!	!	!	!LO:TX:a:t=problem: łamanie w takcie	!	!	!	!	!	!
.	.	.	.	.	.	.	.	.	.	24d/JJyy	24d/JJ	.	.	.	.	.
4r	.	.	.	.	.	.	.	.	.	16d/LLyy	16d/LL	.	.	.	.	.
.	.	.	.	.	.	.	.	.	.	16f#/yy	16f#/	.	.	.	.	.
.	.	.	.	.	.	.	.	.	.	16f#/yy	16a/	.	.	.	.	.
.	.	.	.	.	.	.	.	.	.	16a/JJyy	16cc/JJ	.	.	.	.	.
4D\	.	.	.	.	.	.	.	.	.	16a/LLyy	16cc\LL	.	.	.	.	.
.	.	.	.	.	.	.	.	.	.	16f#/yy	16a\	.	.	.	.	.
.	.	.	.	.	.	.	.	.	.	16g/yy	16b\	.	.	.	.	.
.	.	.	.	.	.	.	.	.	.	16a/JJyy	16cc\JJ	.	.	.	.	.
!	!	!	!	!	!	!	!	!	!	!	!LO:LB:g=original	!	!	!	!	!
=82	=82	=82	=82	=82	=82	=82	=82	=82	=82	=82	=82	=82	=82	=82	=82	=82
4G\	.	2.ryy	.	2.ryy	.	.	.	2.r	.	8G/Lyy	8B/L	.	2.ryy	2.ryy	8g/L	8b\L
.	.	.	.	.	.	.	.	.	.	8B/yy	8d/	.	.	.	8b/	8dd\J
4GG/	.	.	.	.	.	.	.	.	.	8B/yy	8d/	.	.	.	8b/	8dd\L
.	.	.	.	.	.	.	.	.	.	8A/yy	8c/	.	.	.	8a/	8cc\
4r	.	.	.	.	.	.	.	.	.	8A/yy	8c/	.	.	.	8a/	8cc\
.	.	.	.	.	.	.	.	.	.	8G/Jyy	8B/J	.	.	.	8g/J	8b\J
=83	=83	=83	=83	=83	=83	=83	=83	=83	=83	=83	=83	=83	=83	=83	=83	=83
!	!	!	!	!	!	!LO:N:vis=00	!	!	!	!	!	!	!	!	!	!
8G\L	.	2.ryy	.	2.ryy	.	0.r	.	2.r	.	4cc\	4ee\	.	2.ryy	2.ryy	2.ccc\	2.eee\
8G\	.	.	.	.	.	.	.	.	.	.	.	.	.	.	.	.
*	*	*	*	*	*	*	*	*	*	*	*Xtuplet	*	*	*	*	*
8G\	.	.	.	.	.	.	.	.	.	8cc\L	12ee\L	.	.	.	.	.
.	.	.	.	.	.	.	.	.	.	.	12gg\	.	.	.	.	.
8G\	.	.	.	.	.	.	.	.	.	16ee\L	.	.	.	.	.	.
.	.	.	.	.	.	.	.	.	.	.	12ff#\J	.	.	.	.	.
.	.	.	.	.	.	.	.	.	.	16dd\JJ	.	.	.	.	.	.
8G\	.	.	.	.	.	.	.	.	.	8ee\L	12gg\L	.	.	.	.	.
.	.	.	.	.	.	.	.	.	.	.	12ff#\	.	.	.	.	.
8G\J	.	.	.	.	.	.	.	.	.	16dd\L	.	.	.	.	.	.
.	.	.	.	.	.	.	.	.	.	.	12ee\J	.	.	.	.	.
.	.	.	.	.	.	.	.	.	.	16cc\JJ	.	.	.	.	.	.
!LO:LB:g=original	!	!	!	!	!	!	!	!	!	!	!	!	!	!	!	!
=84	=84	=84	=84	=84	=84	=84	=84	=84	=84	=84	=84	=84	=84	=84	=84	=84
8G\L	.	2.ryy	.	2.ryy	.	.	.	2.r	.	4b\	4dd\	.	2.ryy	2.ryy	2.bb\	2.ddd\
8G\	.	.	.	.	.	.	.	.	.	.	.	.	.	.	.	.
8G\	.	.	.	.	.	.	.	.	.	8b\L	12dd\L	.	.	.	.	.
.	.	.	.	.	.	.	.	.	.	.	12gg\	.	.	.	.	.
8G\	.	.	.	.	.	.	.	.	.	16dd\L	.	.	.	.	.	.
.	.	.	.	.	.	.	.	.	.	.	12ff#\J	.	.	.	.	.
.	.	.	.	.	.	.	.	.	.	16cc\JJ	.	.	.	.	.	.
8G\	.	.	.	.	.	.	.	.	.	16dd\LL	(16gg\LL	.	.	.	.	.
.	.	.	.	.	.	.	.	.	.	16b\	16dd\)	.	.	.	.	.
8G\J	.	.	.	.	.	.	.	.	.	16b\	(16dd\	.	.	.	.	.
.	.	.	.	.	.	.	.	.	.	16g\JJ	16b\JJ)	.	.	.	.	.
*Xtremolo	*	*	*	*	*	*	*	*	*	*	*	*	*	*	*	*
=85	=85	=85	=85	=85	=85	=85	=85	=85	=85	=85	=85	=85	=85	=85	=85	=85
8F#\L	.	2.ryy	.	2.ryy	.	.	.	2.r	.	4a/	4cc\	.	2.ryy	2.ryy	2.aa\	2.ccc\
8F#\	.	.	.	.	.	.	.	.	.	.	.	.	.	.	.	.
8D\	.	.	.	.	.	.	.	.	.	8a/L	8cc\L	.	.	.	.	.
8D\	.	.	.	.	.	.	.	.	.	16cc/L	16ee\L	.	.	.	.	.
.	.	.	.	.	.	.	.	.	.	16b/JJ	16dd\JJ	.	.	.	.	.
8F#\	.	.	.	.	.	.	.	.	.	8cc\L	8ee\L	.	.	.	.	.
8F#\J	.	.	.	.	.	.	.	.	.	16b\L	16dd\L	.	.	.	.	.
.	.	.	.	.	.	.	.	.	.	16a\JJ	16cc\JJ	.	.	.	.	.
=86	=86	=86	=86	=86	=86	=86	=86	=86	=86	=86	=86	=86	=86	=86	=86	=86
!	!	!	!	!	!	!	!	!	!	!	!	!	!	!	!LO:N:vis=0	!LO:N:vis=0
4G\	.	2.ryy	.	2.ryy	.	.	.	2.r	.	8.g\L	8.b\L	.	2.ryy	2.ryy	1.r	1.r
.	.	.	.	.	.	.	.	.	.	16b\Jk	16dd\Jk	.	.	.	.	.
4GG/	.	.	.	.	.	.	.	.	.	8r	8r	.	.	.	.	.
.	.	.	.	.	.	.	.	.	.	8g\L	8b\L	.	.	.	.	.
4r	.	.	.	.	.	.	.	.	.	8a\	8cc\	.	.	.	.	.
.	.	.	.	.	.	.	.	.	.	8b\J	8dd\J	.	.	.	.	.
!	!	!	!	!	!	!	!	!	!	!LO:LB:g=original	!LO:PB:g=original	!	!	!	!	!
=87	=87	=87	=87	=87	=87	=87	=87	=87	=87	=87	=87	=87	=87	=87	=87	=87
*tremolo	*	*	*	*	*	*	*	*	*	*	*	*	*	*	*	*
!	!	!	!	!	!	!LO:N:vis=00	!	!	!	!	!	!	!	!	!	!
8D\L	.	2.ryy	.	2.ryy	.	0.r	.	2.r	.	4.f#/	4.a/	.	2.ryy	2.ryy	.	.
8D\	.	.	.	.	.	.	.	.	.	.	.	.	.	.	.	.
8D\	.	.	.	.	.	.	.	.	.	.	.	.	.	.	.	.
8D\	.	.	.	.	.	.	.	.	.	16a/LL	16cc\LL	.	.	.	.	.
.	.	.	.	.	.	.	.	.	.	16g/JJ	16b\JJ	.	.	.	.	.
!	!	!	!	!	!	!	!	!	!	!	!LO:N:vis=16	!	!	!	!	!
8D\	.	.	.	.	.	.	.	.	.	8cc\L	8ee\L	.	.	.	.	.
8D\J	.	.	.	.	.	.	.	.	.	16b\L	16dd\L	.	.	.	.	.
.	.	.	.	.	.	.	.	.	.	16a\JJ	16cc\JJ	.	.	.	.	.
=88	=88	=88	=88	=88	=88	=88	=88	=88	=88	=88	=88	=88	=88	=88	=88	=88
4G\	.	2.ryy	.	2.ryy	.	.	.	2.r	.	8.g\L	8.b\L	.	2.ryy	2.ryy	8.gg\L	8.bb\L
.	.	.	.	.	.	.	.	.	.	16b\Jk	16dd\Jk	.	.	.	16bb\Jk	16ddd\Jk
4GG/	.	.	.	.	.	.	.	.	.	8r	8r	.	.	.	8r	8r
.	.	.	.	.	.	.	.	.	.	8B/L	8B/L	.	.	.	8gg\L	8bb\L
4r	.	.	.	.	.	.	.	.	.	8A/	8c/	.	.	.	8aa\	8ccc\
.	.	.	.	.	.	.	.	.	.	8B/J	8d/J	.	.	.	8bb\J	8ddd\J
=89	=89	=89	=89	=89	=89	=89	=89	=89	=89	=89	=89	=89	=89	=89	=89	=89
8D\L	.	2.ryy	.	2.ryy	.	.	.	2.r	.	4.f#/	4.A/	.	2.ryy	2.ryy	4.ff#\	4.aa\
8D\	.	.	.	.	.	.	.	.	.	.	.	.	.	.	.	.
8D\	.	.	.	.	.	.	.	.	.	.	.	.	.	.	.	.
8D\	.	.	.	.	.	.	.	.	.	16a/LL	16c/LL	.	.	.	16aa\LL	16ccc\LL
.	.	.	.	.	.	.	.	.	.	16g/JJ	16B/JJ	.	.	.	16gg\JJ	16bb\JJ
8D\	.	.	.	.	.	.	.	.	.	8B/L	8e/L	.	.	.	8ccc\L	8eee\L
8D\J	.	.	.	.	.	.	.	.	.	16A/L	16d/L	.	.	.	16bb\L	16ddd\L
.	.	.	.	.	.	.	.	.	.	16G/JJ	16c/JJ	.	.	.	16aa\JJ	16ccc\JJ
!	!	!	!	!	!	!	!	!	!	!	!	!	!	!	!LO:LB:g=original	!LO:LB:g=original
=90	=90	=90	=90	=90	=90	=90	=90	=90	=90	=90	=90	=90	=90	=90	=90	=90
8BB/L	.	2.ryy	.	2.ryy	.	.	.	2.r	.	16gg\LL	16gg\LL	.	2.ryy	2.ryy	8gg\	16gg\LL
.	.	.	.	.	.	.	.	.	.	16dd\	16dd\	.	.	.	.	16dd\
8BB/	.	.	.	.	.	.	.	.	.	16bb\	16bb\	.	.	.	8r	16bb\
.	.	.	.	.	.	.	.	.	.	16aa\JJ	16aa\JJ	.	.	.	.	16aa\JJ
8BB/	.	.	.	.	.	.	.	.	.	16gg\LL	16gg\LL	.	.	.	8gg\	16gg\LL
.	.	.	.	.	.	.	.	.	.	16dd\	16dd\	.	.	.	.	16dd\
8BB/	.	.	.	.	.	.	.	.	.	16bb\	16bb\	.	.	.	8r	16bb\
.	.	.	.	.	.	.	.	.	.	16aa\JJ	16aa\JJ	.	.	.	.	16aa\JJ
8BB/	.	.	.	.	.	.	.	.	.	16gg\LL	16gg\LL	.	.	.	16gg\LL	16bb\LL
.	.	.	.	.	.	.	.	.	.	16b\	16dd\	.	.	.	16bb\	16ddd\
8BB/J	.	.	.	.	.	.	.	.	.	16a\	16cc\	.	.	.	16aa\	16ccc\
.	.	.	.	.	.	.	.	.	.	16g\JJ	16b\JJ	.	.	.	16gg\JJ	16bb\JJ
*Xtremolo	*	*	*	*	*	*	*	*	*	*	*	*	*	*	*	*
=91	=91	=91	=91	=91	=91	=91	=91	=91	=91	=91	=91	=91	=91	=91	=91	=91
!	!	!	!	!	!	!LO:N:vis=00	!	!	!	!	!	!	!	!	!	!
8C/L	.	2.ryy	.	2.ryy	.	0.r	.	2.r	.	8cc\L	8ee\L	.	2.ryy	2.ryy	8ccc\L	8eee\L
8C/	.	.	.	.	.	.	.	.	.	16b\L	16dd\L	.	.	.	16bb\L	16ddd\L
.	.	.	.	.	.	.	.	.	.	16a\JJ	16cc\JJ	.	.	.	16aa\JJ	16ccc\JJ
8D/	.	.	.	.	.	.	.	.	.	4g/	4b\	.	.	.	4gg\	4bb\
8D/	.	.	.	.	.	.	.	.	.	.	.	.	.	.	.	.
8C/	.	.	.	.	.	.	.	.	.	4d/	4a\	.	.	.	4ff#\	4aa\
8C/J	.	.	.	.	.	.	.	.	.	.	.	.	.	.	.	.
!	!	!	!	!	!	!	!	!	!	!	!LO:LB:g=original	!	!	!	!	!
=92	=92	=92	=92	=92	=92	=92	=92	=92	=92	=92	=92	=92	=92	=92	=92	=92
*tremolo	*	*	*	*	*	*	*	*	*	*	*	*	*	*	*	*
8BB/L	.	2.ryy	.	2.ryy	.	.	.	2.r	.	16gg\LL	16gg\LL	.	2.ryy	2.ryy	8gg\	16gg\LL
.	.	.	.	.	.	.	.	.	.	16dd\	16dd\	.	.	.	.	16dd\
8BB/	.	.	.	.	.	.	.	.	.	16bb\	16bb\	.	.	.	8r	16bb\
.	.	.	.	.	.	.	.	.	.	16aa\JJ	16aa\JJ	.	.	.	.	16aa\JJ
8BB/	.	.	.	.	.	.	.	.	.	16gg\LL	16gg\LL	.	.	.	8gg\	16gg\LL
.	.	.	.	.	.	.	.	.	.	16dd\	16dd\	.	.	.	.	16dd\
8BB/	.	.	.	.	.	.	.	.	.	16bb\	16bb\	.	.	.	8r	16bb\
.	.	.	.	.	.	.	.	.	.	16aa\JJ	16aa\JJ	.	.	.	.	16aa\JJ
!	!	!	!	!	!	!	!	!	!	!LO:LB:g=original	!	!	!	!	!	!
8BB/	.	.	.	.	.	.	.	.	.	16gg\LL	16gg\LL	.	.	.	16b\LL	16gg\LL
.	.	.	.	.	.	.	.	.	.	16b\	16dd\	.	.	.	16bb\	16ddd\
8BB/J	.	.	.	.	.	.	.	.	.	16a\	16dd\	.	.	.	16aa\	16ccc\
.	.	.	.	.	.	.	.	.	.	16g\JJ	16b\JJ	.	.	.	16gg\JJ	16bb\JJ
*Xtremolo	*	*	*	*	*	*	*	*	*	*	*	*	*	*	*	*
=93	=93	=93	=93	=93	=93	=93	=93	=93	=93	=93	=93	=93	=93	=93	=93	=93
8C/L	.	2.ryy	.	2.ryy	.	.	.	2.r	.	8cc\L	8e/L	.	2.ryy	2.ryy	2.r	2.r
8C/	.	.	.	.	.	.	.	.	.	16b\L	16d/L	.	.	.	.	.
.	.	.	.	.	.	.	.	.	.	16a\JJ	16c/JJ	.	.	.	.	.
8D/	.	.	.	.	.	.	.	.	.	4d/	4B/	.	.	.	.	.
8D/	.	.	.	.	.	.	.	.	.	.	.	.	.	.	.	.
8DD/	.	.	.	.	.	.	.	.	.	4c/	4A/	.	.	.	.	.
8DD/J	.	.	.	.	.	.	.	.	.	.	.	.	.	.	.	.
!LO:LB:g=original	!	!	!	!	!	!	!	!	!	!	!	!	!	!	!	!
=94	=94	=94	=94	=94	=94	=94	=94	=94	=94	=94	=94	=94	=94	=94	=94	=94
4GG/	.	2.ryy	.	2.ryy	.	.	.	2.r	.	8g/L	8g/L	.	2.ryy	2.ryy	8gg\L	8gg\L
.	.	.	.	.	.	.	.	.	.	8d/J	8d/J	.	.	.	8dd\J	8dd\J
4r	.	.	.	.	.	.	.	.	.	4G/	4G/	.	.	.	4g/	4g/
4r;	.	.	.	.	.	.	.	.	.	4r	4r	.	.	.	4r;	4r
!	!	!	!	!	!	!LO:LB:g=original	!	!LO:LB:g=original	!	!	!LO:LB:g=original	!	!	!	!LO:LB:g=original	!LO:LB:g=original
=95||	=95||	=95||	=95||	=95||	=95||	=95||	=95||	=95||	=95||	=95||;	=95||	=95||	=95||	=95||	=95||;;	=95||;;
*k[f#c#]	*	*k[f#c#]	*	*k[f#c#]	*	*k[f#c#]	*	*k[f#c#]	*	*k[f#c#]	*k[f#c#]	*	*k[f#c#]	*k[f#c#]	*k[f#c#]	*k[f#c#]
*D:	*	*D:	*	*D:	*	*D:	*	*D:	*	*D:	*D:	*	*D:	*D:	*D:	*D:
!LO:TX:b:t=Osanna	!	!	!	!	!	!	!	!	!	!LO:TX:b:i:t=Osanna	!LO:TX:a:t=Osanna	!	!LO:TX:b:i:t=Osanna	!LO:TX:b:i:t=Osanna	!	!
!LO:TX:a:t=allo.	!	!	!	!LO:TX:a:t=Allo	!	!LO:TX:a:t=Allo	!	!LO:TX:a:t=Allo	!	!LO:TX:a:t=allo	!LO:TX:a:t=allo	!	!LO:TX:a:t=allo	!LO:TX:a:t=allo	!LO:TX:a:t=Tacet	!LO:TX:a:t=Tacet
4D\	.	2d\	O-	2.A\	O-	2a\	O-	2ff#\	O-	4a/	4ff#\	.	2dd\	2ff#\	2.ryy	2.ryy
4d\	.	.	.	.	.	.	.	.	.	4a/	8ff#\L	.	.	.	.	.
.	.	.	.	.	.	.	.	.	.	.	8aa\	.	.	.	.	.
4c#\	.	4c#\	.	.	.	4a\	.	4ee\	.	4a/	8ee\	.	4a/	4ee\	.	.
.	.	.	.	.	.	.	.	.	.	.	8gg\J	.	.	.	.	.
=96	=96	=96	=96	=96	=96	=96	=96	=96	=96	=96	=96	=96	=96	=96	=96	=96
4d\	.	4d\	-san-	4A\	-san-	4a\	-san-	4ff#\	-san-	4a/	8ff#\L	.	4dd\	4ff#\	2.ryy	2.ryy
.	.	.	.	.	.	.	.	.	.	.	8aa\J	.	.	.	.	.
4A\	.	4A\	-na	4c#\	-na	4a\	-na	4ee\	-na	4cc#/	4ee\	.	4a/	4ee\	.	.
4r	.	4r	.	4r	.	4r	.	4r	.	4r	4r	.	4r	4r	.	.
=97	=97	=97	=97	=97	=97	=97	=97	=97	=97	=97	=97	=97	=97	=97	=97	=97
4F#\	.	4F#\	in	4A\	in	4dd\	in	2dd\	in	4a/	8dd\L	.	4dd\	4dd\	2.ryy	2.ryy
.	.	.	.	.	.	.	.	.	.	.	16ddd\L	.	.	.	.	.
.	.	.	.	.	.	.	.	.	.	.	16ccc#\JJ	.	.	.	.	.
4G\	.	4G\	.	4B\	.	4g\	.	.	.	4b/	12bb\L	.	4r	4r	.	.
.	.	.	.	.	.	.	.	.	.	.	12aa\	.	.	.	.	.
.	.	.	.	.	.	.	.	.	.	.	12gg\J	.	.	.	.	.
!	!	!	!	!	!	!	!	!LO:TX:a:t=problem:trójka pod klamrą łukową	!	!	!	!	!	!	!	!
4G#X\	.	4G#X\	ex-	4B\	ex-	4g#X\	ex-	12ff#\L	Ex-	4b/	12ff#\L	.	4dd\	4ff#\	.	.
.	.	.	.	.	.	.	.	12ee\	.	.	12ee\	.	.	.	.	.
.	.	.	.	.	.	.	.	12dd\J	.	.	12dd\J	.	.	.	.	.
!	!	!	!	!	!	!	!	!	!	!	!LO:LB:g=original	!	!	!	!	!
=98	=98	=98	=98	=98	=98	=98	=98	=98	=98	=98	=98	=98	=98	=98	=98	=98
4A\	.	4A\	-cel-	4E/	-cel-	4a\	-cel-	4cc#\	-cel-	4e/	4cc#\	.	4a/	4ee\	2.ryy	2.ryy
4D\	.	4AA/	-sis	4F#/	-sis	4d\	-sis	4dd\	-sis	4f#/	4dd\	.	8dd\L	8ff#\L	.	.
.	.	.	.	.	.	.	.	.	.	.	.	.	8dd\J	8ff#\J	.	.
4r	.	4r	.	4r	.	4r	.	4r	.	4r	4r	.	4dd\	4ff#\	.	.
=99	=99	=99	=99	=99	=99	=99	=99	=99	=99	=99	=99	=99	=99	=99	=99	=99
4D\	.	4D\	o-	2.A\	o-	2.a\	O-	2.ff#\	O-	8dd\L	8dd\L	.	4dd\	4ff#\	2.ryy	2.ryy
.	.	.	.	.	.	.	.	.	.	8ff#\	8ff#\	.	.	.	.	.
4F#\	.	4F#\	.	.	.	.	.	.	.	8aa\	8aa\	.	4r	4r	.	.
.	.	.	.	.	.	.	.	.	.	8ff#\	8ff#\	.	.	.	.	.
4D\	.	4D\	.	.	.	.	.	.	.	8ee\	8ee\	.	4dd\	4ff#\	.	.
.	.	.	.	.	.	.	.	.	.	8dd\J	8dd\J	.	.	.	.	.
=100	=100	=100	=100	=100	=100	=100	=100	=100	=100	=100	=100	=100	=100	=100	=100	=100
*	*	*	*	*Xtuplet	*	*	*	*	*	*	*tuplet	*	*	*	*	*
!	!	!	!	!	!	!	!	!LO:TX:a:t=problem:trójka pod klamrą łukową	!	!	!LO:TX:a:t=problem:3 pod klamrą łukową	!	!	!	!	!
4AA/	.	4A\	-san-	12c#\L	-san-	4a\	-san-	12ee\L	-san-	12cc#\L	12ee\L	.	4.dd\	4ee\	2.ryy	2.ryy
.	.	.	.	12d\	.	.	.	12ff#\	.	12dd\	12ff#\	.	.	.	.	.
.	.	.	.	12e\J	.	.	.	12gg\J	.	12ee\J	12gg\J	.	.	.	.	.
.	.	.	.	8qqe/	.	.	.	.	.	8qqee/	8qqgg/	.	.	.	.	.
4D/	.	4d\	.	2d\	-na	2a\	-na	2ff#\	-na	2dd\	2ff#\	.	.	8ff#\L	.	.
.	.	.	.	.	.	.	.	.	.	.	.	.	8dd\	8ff#\J	.	.
4DD/	.	4D\	-na	.	.	.	.	.	.	.	.	.	4dd\	4ff#\	.	.
=101	=101	=101	=101	=101	=101	=101	=101	=101	=101	=101	=101	=101	=101	=101	=101	=101
4D\	.	4D\	o-	2.A\	o-	2.a\	{o-	2.ff#\	O-	8dd\L	8dd\L	.	4dd\	4ff#\	2.ryy	2.ryy
.	.	.	.	.	.	.	.	.	.	8ff#\	8ff#\	.	.	.	.	.
4F#\	.	4F#\	.	.	.	.	.	.	.	8aa\	8aa\	.	4r	4r	.	.
.	.	.	.	.	.	.	.	.	.	8ff#\	8ff#\	.	.	.	.	.
4D\	.	4D\	.	.	.	.	.	.	.	8ee\	8ee\	.	4dd\	4ff#\	.	.
.	.	.	.	.	.	.	.	.	.	8dd\J	8dd\J	.	.	.	.	.
!	!	!	!	!	!	!	!	!	!	!	!LO:LB:g=original	!	!LO:LB:g=original	!	!	!
=102	=102	=102	=102	=102	=102	=102	=102	=102	=102	=102	=102	=102	=102	=102	=102	=102
*	*	*	*	*tuplet	*	*	*	*Xtuplet	*	*	*Xtuplet	*	*	*	*	*
!	!	!	!	!LO:TX:a:t=problem:3 pod klamrą łukową	!	!	!	!	!	!	!	!	!	!	!	!
4AA/	.	4A\	-san-	12c#\L	-san-	4a\	-san-	12ee\L	-san-	12cc#\L	12ee\L	.	4a/	4ee\	2.ryy	2.ryy
.	.	.	.	12d\	.	.	.	12ff#\	.	12dd\	12ff#\	.	.	.	.	.
.	.	.	.	12e\J	.	.	.	12gg\J	.	12ee\J	12gg\J	.	.	.	.	.
.	.	.	.	8qqe/	.	.	.	.	.	8qqee/	.	.	.	.	.	.
4D\	.	4d\	.	2d\	-na	2a\	-na}	2ff#\	-na	2dd\	2ff#\	.	8dd\L	8ff#\L	.	.
.	.	.	.	.	.	.	.	.	.	.	.	.	8dd\J	8ff#\J	.	.
4DD/	.	4D\	-na	.	.	.	.	.	.	.	.	.	4dd\	4ff#\	.	.
!	!	!	!	!	!	!LO:LB:g=original	!	!	!	!LO:LB:g=original	!	!	!	!	!	!
=103	=103	=103	=103	=103	=103	=103	=103	=103	=103	=103	=103	=103	=103	=103	=103	=103
*	*	*	*	*	*	*	*	*	*	*	*tuplet	*	*	*	*	*
4D\	.	4D\	in	4d\	in	4d\	in	4ff#\	in	12dd\L	12ff#\L	.	4ff#\	4aa\	2.ryy	2.ryy
.	.	.	.	.	.	.	.	.	.	12ee\	12gg\	.	.	.	.	.
.	.	.	.	.	.	.	.	.	.	12ff#\J	12aa\J	.	.	.	.	.
8D\L	.	4C#\	ex-	4e\	.	4e\	.	4gg\	.	4ee\	4gg\	.	4ee\	4gg\	.	.
8E\	.	.	.	.	.	.	.	.	.	.	.	.	.	.	.	.
8F#\	.	4D\	-cel-	4d\	ex-	4f#\	ex-	4ff#\	Ex-	4dd\	4ff#\	.	4dd\	4ff#\	.	.
8G#X\J	.	.	.	.	.	.	.	.	.	.	.	.	.	.	.	.
!LO:LB:g=original	!	!	!	!LO:LB:g=original	!	!	!	!LO:LB:g=original	!	!	!	!	!	!	!	!
=104	=104	=104	=104	=104	=104	=104	=104	=104	=104	=104	=104	=104	=104	=104	=104	=104
4A\	.	4A\	.	4d\	-cel-	4a\	-cel-	4ff#\	-cel-	4dd\	4ff#\	.	4dd\	4ff#\	2.ryy	2.ryy
4AA/	.	4AA/	-sis	4c#\	-sis	4a\	-sis	4ee\	-sis	4cc#\	4ee\	.	8a/L	8ee\L	.	.
.	.	.	.	.	.	.	.	.	.	.	.	.	8a/J	8ee\J	.	.
4r	.	4r	.	4r	.	4r	.	4r	.	4r	4r	.	4a/	4ee\	.	.
!	!	!LO:LB:g=original	!	!	!	!	!	!	!	!	!	!	!	!	!	!
=105	=105	=105	=105	=105	=105	=105	=105	=105	=105	=105	=105	=105	=105	=105	=105	=105
*	*	*	*	*	*	*	*	*	*	*	*Xtuplet	*	*	*	*	*
8G#X\L	.	4E\	o-	4G#X\	o-	4a\	o-	4b\	O-	12B/L	12e/L	.	4ee\	4ee\	2.ryy	2.ryy
.	.	.	.	.	.	.	.	.	.	12e/	12g#X/	.	.	.	.	.
8E\	.	.	.	.	.	.	.	.	.	.	.	.	.	.	.	.
.	.	.	.	.	.	.	.	.	.	12g#X/J	12b/J	.	.	.	.	.
8G#\	.	4G#X\	.	2B\	.	2a\	-san-	2dd\	.	2b/	2dd\	.	4r	4r	.	.
8E\	.	.	.	.	.	.	.	.	.	.	.	.	.	.	.	.
8G#\	.	4E\	.	.	.	.	.	.	.	.	.	.	4r	4r	.	.
8E\J	.	.	.	.	.	.	.	.	.	.	.	.	.	.	.	.
=106	=106	=106	=106	=106	=106	=106	=106	=106	=106	=106	=106	=106	=106	=106	=106	=106
8A\L	.	4A\	-san-	4A\	-san-	2.e\	-na	4cc#\	-san-	12c#/L	12e/L	.	4a/	4ee\	2.ryy	2.ryy
.	.	.	.	.	.	.	.	.	.	12e/	12a/	.	.	.	.	.
8E\	.	.	.	.	.	.	.	.	.	.	.	.	.	.	.	.
.	.	.	.	.	.	.	.	.	.	12a/J	12cc#/J	.	.	.	.	.
8A\	.	4C#/	.	2c#\	-na	.	.	2ee\	-na	2cc#\	2ee\	.	4r	4r	.	.
8E\	.	.	.	.	.	.	.	.	.	.	.	.	.	.	.	.
8A\	.	4AA/	-na	.	.	.	.	.	.	.	.	.	4r	4r	.	.
8E\J	.	.	.	.	.	.	.	.	.	.	.	.	.	.	.	.
=107	=107	=107	=107	=107	=107	=107	=107	=107	=107	=107	=107	=107	=107	=107	=107	=107
!	!	!	!	!	!	!	!	!	!	!	!	!	!	!LO:TX:a:t=problem: repetycja tt.105-106	!	!
8G#X\L	.	4E\	o-	4G#X\	o-	4a\	in	4b\	O-	12B/L	12e/L	.	4ee\	4ee\yy	2.ryy	2.ryy
.	.	.	.	.	.	.	.	.	.	12e/	12g#X/	.	.	.	.	.
8E\	.	.	.	.	.	.	.	.	.	.	.	.	.	.	.	.
.	.	.	.	.	.	.	.	.	.	12g#X/J	12b/J	.	.	.	.	.
8G#\	.	4G#X\	.	2B\	.	2a\	ex-	2dd\	.	2dd\	2dd\	.	4r	4ryy	.	.
8E\	.	.	.	.	.	.	.	.	.	.	.	.	.	.	.	.
8G#\	.	4E\	.	.	.	.	.	.	.	.	.	.	4r	4ryy	.	.
8E\J	.	.	.	.	.	.	.	.	.	.	.	.	.	.	.	.
!	!	!	!	!	!	!	!	!	!	!	!LO:LB:g=original	!	!	!	!	!
=108	=108	=108	=108	=108	=108	=108	=108	=108	=108	=108	=108	=108	=108	=108	=108	=108
8A\L	.	4A\	-san-	4A\	-san-	4a\	-cel-	4cc#\	-san-	12c#/L	12e/L	.	4a/	4ee\yy	2.ryy	2.ryy
.	.	.	.	.	.	.	.	.	.	12e/	12a/	.	.	.	.	.
8E\	.	.	.	.	.	.	.	.	.	.	.	.	.	.	.	.
.	.	.	.	.	.	.	.	.	.	12a/J	12cc#/J	.	.	.	.	.
8A\	.	4C#/	.	2c#\	-na	2a/	-sis	2ee\	-na	2cc#\	2ee\	.	4r	4ryy	.	.
8E\	.	.	.	.	.	.	.	.	.	.	.	.	.	.	.	.
8A\	.	4AA/	-na	.	.	.	.	.	.	.	.	.	4r	4ryy	.	.
8E\J	.	.	.	.	.	.	.	.	.	.	.	.	.	.	.	.
=109	=109	=109	=109	=109	=109	=109	=109	=109	=109	=109	=109	=109	=109	=109	=109	=109
8F#\L	.	4D\	in	4F#/	o-	8a\L	in	8dd\L	in	4f#/	8dd\L	.	4r	4r	2.ryy	2.ryy
8D\J	.	.	.	.	.	8e\J	ex-	8b\J	.	.	8b\J	.	.	.	.	.
.	.	.	.	.	.	.	.	8qqa/	.	.	8qqa/	.	.	.	.	.
4E\	.	2F#\	excel-	2B\	-san-	2f#\	-cel-	2g#X\	Excel-	4c#/	2g#X/	.	4ee\	4ee\	.	.
4EE/	.	.	.	.	.	.	.	.	.	4B/	.	.	8ee\L	8ee\L	.	.
.	.	.	.	.	.	.	.	.	.	.	.	.	8ee\J	8ee\J	.	.
=110	=110	=110	=110	=110	=110	=110	=110	=110	=110	=110	=110	=110	=110	=110	=110	=110
4AA/	.	4AA/	-sis	4c#\	-na	4A/	-sis	4a\	-sis	8c#/L	8a/L	.	4a/	4ee\	2.ryy	2.ryy
.	.	.	.	.	.	.	.	.	.	8a/	8a/	.	.	.	.	.
4r	.	4r	.	4r	.	4r	.	4r	.	8e/	8e/	.	8a/L	8ee\L	.	.
.	.	.	.	.	.	.	.	.	.	8c#/J	8c#/J	.	8a/J	8ee\J	.	.
4r	.	4r	.	4r	.	4r	.	4r	.	4A/	4A/	.	4a/	4ee\	.	.
!	!	!	!	!	!	!	!	!	!	!LO:LB:g=original	!	!	!	!LO:LB:g=original	!	!
=111	=111	=111	=111	=111	=111	=111	=111	=111	=111	=111	=111	=111	=111	=111	=111	=111
4AA/	.	2A\	O-	2.d\	o-	2a\	O-	2cc#\	O-	4e/	4cc#\	.	4ee\	4ee\	2.ryy	2.ryy
4A\	.	.	.	.	.	.	.	.	.	4e/	8cc#\L	.	4ee\	4ee\	.	.
.	.	.	.	.	.	.	.	.	.	.	8ee\	.	.	.	.	.
4G#X\	.	4G#X\	.	.	.	4g#X\	.	4b\	.	4e/	8b\	.	4ee\	4ee\	.	.
.	.	.	.	.	.	.	.	.	.	.	8ee\J	.	.	.	.	.
!LO:LB:g=original	!	!	!	!	!	!	!	!	!	!	!	!	!	!	!	!
=112	=112	=112	=112	=112	=112	=112	=112	=112	=112	=112	=112	=112	=112	=112	=112	=112
4A\	.	4A\	-san-	4e\	-san-	4a\	-san-	4cc#\	-san-	4e/	8cc#\L	.	4ee\	4ee\	2.ryy	2.ryy
.	.	.	.	.	.	.	.	.	.	.	8ee\J	.	.	.	.	.
4E\	.	4E\	-na	4e\	-na	4e\	-na	4b\	-na	4g#X/	4b\	.	8ee\L	8ee\L	.	.
.	.	.	.	.	.	.	.	.	.	.	.	.	8ee\J	8ee\J	.	.
4r	.	4r	.	4r	.	4r	.	4r	.	4r	4r	.	4ee\	4ee\	.	.
!	!	!	!	!	!	!LO:LB:g=original	!	!LO:LB:g=original	!	!	!	!	!	!	!	!
=113	=113	=113	=113	=113	=113	=113	=113	=113	=113	=113	=113	=113	=113	=113	=113	=113
4C#/	.	4C#/	in	4e\	in	2.r	.	4.a\	in	4e/	12a\L	.	2.r	2.r	2.ryy	2.ryy
.	.	.	.	.	.	.	.	.	.	.	12aa\	.	.	.	.	.
.	.	.	.	.	.	.	.	.	.	.	12gg#X\J	.	.	.	.	.
4D/	.	4D/	.	4f#\	.	.	.	.	.	4f#/	12ff#\L	.	.	.	.	.
.	.	.	.	.	.	.	.	.	.	.	12ee\	.	.	.	.	.
.	.	.	.	.	.	.	.	8cc#\L	Ex-	.	.	.	.	.	.	.
.	.	.	.	.	.	.	.	.	.	.	12dd\J	.	.	.	.	.
4D#X/	.	4D#X/	ex-	4f#\	ex-	.	.	8b\	.	4f#/	12cc#\L	.	.	.	.	.
.	.	.	.	.	.	.	.	.	.	.	12b\	.	.	.	.	.
.	.	.	.	.	.	.	.	8a\J	.	.	.	.	.	.	.	.
.	.	.	.	.	.	.	.	.	.	.	12a\J	.	.	.	.	.
!	!	!	!	!	!	!	!	!	!	!	!LO:LB:g=original	!	!	!	!	!
=114	=114	=114	=114	=114	=114	=114	=114	=114	=114	=114	=114	=114	=114	=114	=114	=114
4E/	.	4E\	-cel-	4B\	-cel-	2.r	.	4g#X\	-cel-	4B/	4g#X/	.	4ee\	4ee\	2.ryy	2.ryy
4AA/	.	4AA/	-sis	4c#\	-sis	.	.	4a\	-sis	4c#/	4a/	.	4a/	4ee\	.	.
4r	.	4r	.	4r	.	.	.	4r	.	4r	4r	.	4r	4r	.	.
!	!	!	!	!	!	!	!	!	!	!	!	!	!LO:LB:g=original	!	!	!
=115	=115	=115	=115	=115	=115	=115	=115	=115	=115	=115	=115	=115	=115	=115	=115	=115
4BB/	.	2B\	o-	2.f#\	o-	2b\	{o-	2dd\	O-	4f#/	4dd\	.	4f#/	4f#/	2.ryy	2.ryy
4B\	.	.	.	.	.	.	.	.	.	4f#/	8dd\L	.	4f#/	4f#/	.	.
.	.	.	.	.	.	.	.	.	.	.	8ff#\	.	.	.	.	.
4A#X\	.	4A#X\	.	.	.	4a#X\	.	4cc#\	.	4f#/	8cc#\	.	4f#/	4f#/	.	.
.	.	.	.	.	.	.	.	.	.	.	8ff#\J	.	.	.	.	.
!	!	!LO:LB:g=original	!	!LO:LB:g=original	!	!	!	!	!	!	!	!	!	!	!	!
=116	=116	=116	=116	=116	=116	=116	=116	=116	=116	=116	=116	=116	=116	=116	=116	=116
4B\	.	4B\	-san-	4f#\	-san-	4b\	-san-	4dd\	-san-	4f#/	8dd\L	.	4f#/	4f#/	2.ryy	2.ryy
.	.	.	.	.	.	.	.	.	.	.	8ff#\J	.	.	.	.	.
4F#\	.	4F#\	-na	4f#\	-na	4f#\	-na}	4cc#\	-na	4a#X/	4cc#\	.	8f#/L	8f#/L	.	.
.	.	.	.	.	.	.	.	.	.	.	.	.	8f#/J	8f#/J	.	.
4r	.	4r	.	4r	.	4r	.	4r	.	4r	4r	.	4f#/	4f#/	.	.
=117	=117	=117	=117	=117	=117	=117	=117	=117	=117	=117	=117	=117	=117	=117	=117	=117
!	!	!	!	!	!	!	!	!	!	!	!	!	!LO:TX:a:t=r	!	!	!
!	!	!	!	!	!	!LO:N:vis=00	!	!	!	!	!	!	!LO:N:vis=2	!LO:N:vis=2	!	!
4D\	.	4D\	in	4f#\	in	0.r	.	2b\	in	4f#/	12b\L	.	2.r	2.r	2.ryy	2.ryy
.	.	.	.	.	.	.	.	.	.	.	12bb\	.	.	.	.	.
.	.	.	.	.	.	.	.	.	.	.	12aa#X\J	.	.	.	.	.
4E\	.	4E\	.	4g\	.	.	.	.	.	4g/	12ggn\L	.	.	.	.	.
.	.	.	.	.	.	.	.	.	.	.	12ff#\	.	.	.	.	.
.	.	.	.	.	.	.	.	.	.	.	12ee\J	.	.	.	.	.
4E#X\	.	4E#X\	ex-	4g\	ex-	.	.	12dd\L	Ex-	4g/	12dd\L	.	.	.	.	.
.	.	.	.	.	.	.	.	12cc#\	.	.	12cc#\	.	.	.	.	.
.	.	.	.	.	.	.	.	12b\J	.	.	12b\J	.	.	.	.	.
=118	=118	=118	=118	=118	=118	=118	=118	=118	=118	=118	=118	=118	=118	=118	=118	=118
.	.	.	.	.	.	.	.	8qqb/	.	.	8qqb/	.	.	.	.	.
4F#\	.	4F#\	-cel-	4c#\	-cel-	.	.	4a#X\	-cel-	4c#/	4a#X/	.	4f#/	4f#/	2.ryy	2.ryy
4BB/	.	4BB/	-sis	4d\	-sis	.	.	4b\	-sis	4d/	4b/	.	4f#/	4f#/	.	.
!	!	!	!	!	!	!	!	!	!	!	!LO:TX:b:i:t=Verte Citto	!	!	!	!	!
4r	.	4r	.	4r	.	.	.	4r	.	4r	4r	.	4r	4r	.	.
!	!	!	!	!	!	!	!	!	!	!	!LO:PB:g=original	!	!	!	!	!
=119	=119	=119	=119	=119	=119	=119	=119	=119	=119	=119	=119	=119	=119	=119	=119	=119
!LO:TX:a:t=problem: mixed beam	!	!	!	!	!	!	!	!	!	!	!	!	!	!LO:TX:a:t=2	!	!
!	!	!	!	!	!	!	!	!	!	!	!	!	!LO:N:vis=1	!LO:N:vis=0	!	!
8BB/L	.	4B\	o-	2.d#X\	o-	.	.	2.ff#\	O-	4dd#X\	12b\L	.	2.dd	1.r	2.ryy	2.ryy
.	.	.	.	.	.	.	.	.	.	.	12dd#X\	.	.	.	.	.
8B\J	.	.	.	.	.	.	.	.	.	.	.	.	.	.	.	.
.	.	.	.	.	.	.	.	.	.	.	12ff#\J	.	.	.	.	.
*tremolo	*	*	*	*	*	*	*	*	*	*	*	*	*	*	*	*
8B\L	.	4d\	.	.	.	.	.	.	.	4b\	2ff#\	.	.	.	.	.
8B\	.	.	.	.	.	.	.	.	.	.	.	.	.	.	.	.
8B\	.	4B\	.	.	.	.	.	.	.	4dd#\	.	.	.	.	.	.
8B\J	.	.	.	.	.	.	.	.	.	.	.	.	.	.	.	.
!	!	!	!	!	!	!	!	!	!	!LO:PB:g=original	!	!	!	!	!	!
=120	=120	=120	=120	=120	=120	=120	=120	=120	=120	=120	=120	=120	=120	=120	=120	=120
!	!	!	!	!	!	!	!	!	!	!	!	!	!LO:TX:a:t=problem:brakujący takt	!	!	!
8B\L	.	4e\	-san-	4B\	-san-	.	.	4ggn\	-san-	4b\	4gg\	.	2.ryy	.	2.ryy	2.ryy
8B\	.	.	.	.	.	.	.	.	.	.	.	.	.	.	.	.
8B\	.	4B\	-na	4d#X\	-na	.	.	4ff#\	-na	8.dd#X\L	8.ff#\L	.	.	.	.	.
8B\	.	.	.	.	.	.	.	.	.	.	.	.	.	.	.	.
!	!	!	!	!	!	!	!	!	!	!LO:TX:a:t=sic:s-16ddd#	!	!	!	!	!	!
.	.	.	.	.	.	.	.	.	.	16ddd\Jk	16bb\Jk	.	.	.	.	.
8B\	.	4r	.	4r	.	.	.	4r	.	4b\	4b\	.	.	.	.	.
8B\J	.	.	.	.	.	.	.	.	.	.	.	.	.	.	.	.
!LO:LB:g=original	!	!	!	!	!	!	!	!LO:LB:g=original	!	!	!	!	!	!	!	!
=121	=121	=121	=121	=121	=121	=121	=121	=121	=121	=121	=121	=121	=121	=121	=121	=121
!LO:TX:a:t=problem: mixed beam	!	!	!	!	!	!	!	!	!	!	!	!	!	!	!	!
8AA/L	.	4A\	in	2c#\	o-	2a\	{o-	2.ee\	O-	4cc#\	12a\L	.	4f#/	4ee\	2.ryy	2.ryy
.	.	.	.	.	.	.	.	.	.	.	12cc#\	.	.	.	.	.
8A\J	.	.	.	.	.	.	.	.	.	.	.	.	.	.	.	.
.	.	.	.	.	.	.	.	.	.	.	12ee\J	.	.	.	.	.
8A\L	.	4c#\	.	.	.	.	.	.	.	4a\	2ee\	.	8f#/L	8ee\L	.	.
8A\	.	.	.	.	.	.	.	.	.	.	.	.	8f#/J	8ee\J	.	.
8A\	.	4A\	ex-	4c#\	.	4a\	.	.	.	4cc#\	.	.	4f#/	4ee\	.	.
8A\J	.	.	.	.	.	.	.	.	.	.	.	.	.	.	.	.
=122	=122	=122	=122	=122	=122	=122	=122	=122	=122	=122	=122	=122	=122	=122	=122	=122
8A\L	.	4d\	-cel-	4A\	-san-	4a\	-san-	4ff#\	-san-	4a\	4ff#\	.	4dd\	4ff#\	2.ryy	2.ryy
8A\	.	.	.	.	.	.	.	.	.	.	.	.	.	.	.	.
8A\	.	4A\	-sis	4c#\	-na	4a\	-na}	4ee\	-na	8.cc#\L	8.ee\L	.	4a\	4ee\	.	.
8A\	.	.	.	.	.	.	.	.	.	.	.	.	.	.	.	.
.	.	.	.	.	.	.	.	.	.	16aa\Jk	16aa\Jk	.	.	.	.	.
8A\	.	4r	.	4r	.	4r	.	4r	.	4a\	4a/	.	4r	4r	.	.
8A\J	.	.	.	.	.	.	.	.	.	.	.	.	.	.	.	.
*Xtremolo	*	*	*	*	*	*	*	*	*	*	*	*	*	*	*	*
=123	=123	=123	=123	=123	=123	=123	=123	=123	=123	=123	=123	=123	=123	=123	=123	=123
!	!	!	!	!	!	!LO:N:vis=00	!	!	!	!	!	!	!	!	!	!
4D\	.	2d\	O-	2.A\	in_ex	0.r	.	2ff#\	in	4a/	4ff#\	.	4dd\	4ff#\	2.ryy	2.ryy
4d\	.	.	.	.	.	.	.	.	.	4a/	8ff#\L	.	4dd\	4ff#\	.	.
.	.	.	.	.	.	.	.	.	.	.	8aa\	.	.	.	.	.
4c#\	.	4c#\	.	.	.	.	.	4ee\	Ex-	4a/	8ee\	.	4a\	4ee\	.	.
.	.	.	.	.	.	.	.	.	.	.	8gg\J	.	.	.	.	.
=124	=124	=124	=124	=124	=124	=124	=124	=124	=124	=124	=124	=124	=124	=124	=124	=124
4d\	.	4d\	-san-	4A\	-cel-	.	.	4ff#\	-cel-	4a/	8ff#\L	.	4dd\	4ff#\	2.ryy	2.ryy
.	.	.	.	.	.	.	.	.	.	.	8aa\J	.	.	.	.	.
4A\	.	4A\	-na	4c#\	-sis	.	.	4ee\	-sis	4cc#\	4ee\	.	4a\	4ee\	.	.
4r	.	4r	.	4r	.	.	.	4r	.	4r	4r	.	4r	4r	.	.
=125	=125	=125	=125	=125	=125	=125	=125	=125	=125	=125	=125	=125	=125	=125	=125	=125
4F#\	.	4F#\	in	4A\	in	.	.	2dd\	in	4a\	12dd\L	.	4dd\	4dd\	2.ryy	2.ryy
.	.	.	.	.	.	.	.	.	.	.	12ddd\	.	.	.	.	.
.	.	.	.	.	.	.	.	.	.	.	12ccc#\J	.	.	.	.	.
4G\	.	4G\	.	4B\	.	.	.	.	.	4b\	12bb\L	.	4r	4r	.	.
.	.	.	.	.	.	.	.	.	.	.	12aa\	.	.	.	.	.
.	.	.	.	.	.	.	.	.	.	.	12gg\J	.	.	.	.	.
!	!	!	!	!	!	!	!	!	!	!	!LO:LB:g=original	!	!	!	!	!
4G#X\	.	4G#X\	ex-	4B\	ex-	.	.	12ff#\L	Ex-	4b\	12ff#\L	.	4dd\	4ff#\	.	.
.	.	.	.	.	.	.	.	12ee\	.	.	12ee\	.	.	.	.	.
.	.	.	.	.	.	.	.	12dd\J	.	.	12dd\J	.	.	.	.	.
=126	=126	=126	=126	=126	=126	=126	=126	=126	=126	=126	=126	=126	=126	=126	=126	=126
.	.	.	.	.	.	.	.	8qqdd/	.	.	.	.	.	.	.	.
4A\	.	4A\	-cel-	4E/	-cel-	.	.	4cc#\	-cel-	4e/	4cc#\	.	4a/	4ee\	2.ryy	2.ryy
8D\L	.	4D\	-sis	4F#/	-sis	.	.	4dd\	-sis	4f#/	4dd\	.	8dd\L	8ff#\L	.	.
8E\	.	.	.	.	.	.	.	.	.	.	.	.	8dd\J	8ff#\J	.	.
8F#\	.	4r	.	4r	.	.	.	4r	.	4r	4r	.	4dd\	4ff#\	.	.
8D\J	.	.	.	.	.	.	.	.	.	.	.	.	.	.	.	.
!	!	!	!	!LO:LB:g=original	!	!	!	!	!	!	!	!	!	!	!	!
=127	=127	=127	=127	=127	=127	=127	=127	=127	=127	=127	=127	=127	=127	=127	=127	=127
4D\	.	4D\	o-	4A\	o-	2a\	{o-	4ccn\	O-	(12ff#\L	12ff#\L	.	4dd\	4ff#\	2.ryy	2.ryy
.	.	.	.	.	.	.	.	.	.	12aa\	12aa\	.	.	.	.	.
.	.	.	.	.	.	.	.	.	.	12gg\J)	12gg\J	.	.	.	.	.
4D\	.	4F#\	.	2A\	-san-	.	.	2cc\	-san-	(12ff#\L	12ff#\L	.	4dd\	4ff#\	.	.
.	.	.	.	.	.	.	.	.	.	12ee\	12ee\	.	.	.	.	.
.	.	.	.	.	.	.	.	.	.	12dd\J)	12dd\J	.	.	.	.	.
4F#\	.	4D\	-san-	.	.	4a\	-san-	.	.	(12ccn\L	12ccn\L	.	8dd\L	8ff#\L	.	.
.	.	.	.	.	.	.	.	.	.	12b\	12b\	.	.	.	.	.
.	.	.	.	.	.	.	.	.	.	.	.	.	8dd\J	8ff#\J	.	.
.	.	.	.	.	.	.	.	.	.	12a\J)	12a\J	.	.	.	.	.
!	!	!LO:LB:g=original	!	!	!	!	!	!	!	!LO:LB:g=original	!	!	!	!	!	!
=128	=128	=128	=128	=128	=128	=128	=128	=128	=128	=128	=128	=128	=128	=128	=128	=128
.	.	.	.	.	.	.	.	8qqcc#/	.	.	.	.	.	.	.	.
4G\	.	4G\	-na	4D/	-na	4g\	-na}	4b\	-na	8b/L	8b/L	.	4dd\	4gg\	2.ryy	2.ryy
.	.	.	.	.	.	.	.	.	.	8g/	8g/	.	.	.	.	.
4GG/	.	4r	.	4r	.	4r	.	4r	.	8d/	8d/	.	4r	4r	.	.
.	.	.	.	.	.	.	.	.	.	8B/J	8B/J	.	.	.	.	.
4r	.	4r	.	4r	.	4r	.	4r	.	4G/	4G/	.	4r	4r	.	.
!	!	!	!	!	!	!	!	!	!	!	!	!	!LO:LB:g=original	!	!	!
=129	=129	=129	=129	=129	=129	=129	=129	=129	=129	=129	=129	=129	=129	=129	=129	=129
4E\	.	4E\	o-	4B\	o-	2b\	{o-	4dd\	O-	(12gg#X\L	12gg#X\L	.	4ee\	4gg#X\	2.ryy	2.ryy
.	.	.	.	.	.	.	.	.	.	12bb\	12bb\	.	.	.	.	.
.	.	.	.	.	.	.	.	.	.	12aa\J)	12aa\J	.	.	.	.	.
4E\	.	4G#X\	.	2B\	-san-	.	.	2dd\	-san-	(12gg#\L	12gg#\L	.	4ee\	4gg#\	.	.
.	.	.	.	.	.	.	.	.	.	12ff#X\	12ff#\	.	.	.	.	.
.	.	.	.	.	.	.	.	.	.	12ee\J)	12ee\J	.	.	.	.	.
4G#X\	.	4E\	-san-	.	.	4b\	-san-	.	.	(12dd\L	12dd\L	.	8ee\L	8gg#\L	.	.
.	.	.	.	.	.	.	.	.	.	12cc#X\	12cc#\	.	.	.	.	.
.	.	.	.	.	.	.	.	.	.	.	.	.	8ee\J	8gg#\J	.	.
.	.	.	.	.	.	.	.	.	.	12b\J)	12b\J	.	.	.	.	.
!	!	!	!	!	!	!	!	!	!	!	!LO:LB:g=original	!	!	!	!	!
=130	=130	=130	=130	=130	=130	=130	=130	=130	=130	=130	=130	=130	=130	=130	=130	=130
4A\	.	4A\	-na	4E/	-na	4a\	-na}	4cc#X\	-na	8cc#/L	8cc#/L	.	4ee\	4aa\	2.ryy	2.ryy
.	.	.	.	.	.	.	.	.	.	8a/	8a/	.	.	.	.	.
4AA/	.	4r	.	4r	.	4r	.	4r	.	8e/	8e/	.	4r	4r	.	.
.	.	.	.	.	.	.	.	.	.	8c#/J	8c#/J	.	.	.	.	.
!	!	!	!	!	!	!LO:TX:b:i:t=Verte Cito	!	!	!	!	!	!	!	!	!	!
4r	.	4r	.	4r	.	4r	.	4r	.	4A/	4A/	.	4r	4r	.	.
!LO:LB:g=original	!	!	!	!	!	!LO:PB:g=original	!	!	!	!	!	!	!	!	!	!
=131	=131	=131	=131	=131	=131	=131	=131	=131	=131	=131	=131	=131	=131	=131	=131	=131
8C#/L	.	4A\	o-	4c#\	o-	2.a\	o-	4ee\	O-	12e/L	12a\L	.	4a/	4ee\	2.ryy	2.ryy
.	.	.	.	.	.	.	.	.	.	12a/	12cc#\	.	.	.	.	.
8AA/	.	.	.	.	.	.	.	.	.	.	.	.	.	.	.	.
.	.	.	.	.	.	.	.	.	.	12cc#/J	12ee\J	.	.	.	.	.
8C#/	.	4c#\	.	2e\	.	.	.	2gg\	.	2ee\	2gg\	.	4r	4r	.	.
8AA/	.	.	.	.	.	.	.	.	.	.	.	.	.	.	.	.
8C#/	.	4A\	.	.	.	.	.	.	.	.	.	.	4r	4r	.	.
8AA/J	.	.	.	.	.	.	.	.	.	.	.	.	.	.	.	.
!	!	!	!	!	!	!	!	!LO:LB:g=original	!	!	!	!	!	!LO:LB:g=original	!	!
=132	=132	=132	=132	=132	=132	=132	=132	=132	=132	=132	=132	=132	=132	=132	=132	=132
8D/L	.	4d\	-san-	4d\	-san-	4a\	-san-	4ff#\	-san-	12f#/L	12a\L	.	4dd\	4ff#\	2.ryy	2.ryy
.	.	.	.	.	.	.	.	.	.	12a/	12dd\	.	.	.	.	.
8AA/	.	.	.	.	.	.	.	.	.	.	.	.	.	.	.	.
.	.	.	.	.	.	.	.	.	.	12dd/J	12ff#\J	.	.	.	.	.
8D/	.	4F#\	.	2f#\	-na	2a\	-na	2aa\	-na	2ff#\	2aa\	.	4r	4r	.	.
8AA/	.	.	.	.	.	.	.	.	.	.	.	.	.	.	.	.
8D/	.	4D\	-na	.	.	.	.	.	.	.	.	.	4r	4r	.	.
8AA/J	.	.	.	.	.	.	.	.	.	.	.	.	.	.	.	.
=133	=133	=133	=133	=133	=133	=133	=133	=133	=133	=133	=133	=133	=133	=133	=133	=133
!	!	!	!	!	!	!	!	!	!	!	!LO:TX:a:t=problem:repetycja tt.131-132	!	!	!	!	!
8C#/L	.	4A\	in	4c#\	o-	2.a\	{o-	4ee\	O-	12e/L	12a\Lyy	.	4a/	4ee\	2.ryy	2.ryy
.	.	.	.	.	.	.	.	.	.	12a/	12cc#\yy	.	.	.	.	.
8AA/	.	.	.	.	.	.	.	.	.	.	.	.	.	.	.	.
.	.	.	.	.	.	.	.	.	.	12cc#/J	12ee\Jyy	.	.	.	.	.
8C#/	.	4c#\	.	2e\	.	.	.	2gg\	.	2ee\	2gg\yy	.	2ee\	2ggn\	.	.
8AA/	.	.	.	.	.	.	.	.	.	.	.	.	.	.	.	.
8C#/	.	4A\	ex-	.	.	.	.	.	.	.	.	.	.	.	.	.
8AA/J	.	.	.	.	.	.	.	.	.	.	.	.	.	.	.	.
=134	=134	=134	=134	=134	=134	=134	=134	=134	=134	=134	=134	=134	=134	=134	=134	=134
8D/L	.	4d\	-cel-	4d\	-san-	4a\	-san-	4ff#\	-san-	12f#/L	12a\Lyy	.	4dd\	4ff#\	2.ryy	2.ryy
.	.	.	.	.	.	.	.	.	.	12a/	12dd\yy	.	.	.	.	.
8AA/	.	.	.	.	.	.	.	.	.	.	.	.	.	.	.	.
.	.	.	.	.	.	.	.	.	.	12dd/J	12ff#\Jyy	.	.	.	.	.
8D/	.	4A\	.	2f#\	-na	2a\	-na}	2aa\	-na	2ff#\	2aa\yy	.	2ff#\	2aa\	.	.
8AA/	.	.	.	.	.	.	.	.	.	.	.	.	.	.	.	.
8D/	.	4F#\	.	.	.	.	.	.	.	.	.	.	.	.	.	.
8AA/J	.	.	.	.	.	.	.	.	.	.	.	.	.	.	.	.
!	!	!	!	!	!	!	!	!	!	!LO:LB:g=original	!	!	!	!	!	!
=135	=135	=135	=135	=135	=135	=135	=135	=135	=135	=135	=135	=135	=135	=135	=135	=135
!LO:TX:a:t=problem: mixed beam	!	!	!	!	!	!	!	!	!	!	!	!	!	!	!	!
8G\L	.	4G\	.	4B\	in-	4dd\	in	8gg\L	in	4b/	8gg\L	.	4ee\	4gg\	2.ryy	2.ryy
8G\	.	.	.	.	.	.	.	8ee\J	ex-	.	8ee\J	.	.	.	.	.
.	.	.	.	.	.	.	.	8qqdd/	.	8qqf#/	8qqdd/	.	.	.	.	.
8A\	.	4A\	.	2E/	-excel-	2a\	excel-	2cc#\	-cel-	2e/	2cc#\	.	4a/	4ee\	.	.
8A\	.	.	.	.	.	.	.	.	.	.	.	.	.	.	.	.
8AA/	.	4AA/	.	.	.	.	.	.	.	.	.	.	8a/L	8ee\L	.	.
8AA/J	.	.	.	.	.	.	.	.	.	.	.	.	8a/J	8ee\J	.	.
=136	=136	=136	=136	=136	=136	=136	=136	=136	=136	=136	=136	=136	=136	=136	=136	=136
8D\L	.	4D\	-sis	4F#/	-sis	4d\	-sis	4dd\	-sis	8f#/L	8dd\L	.	4dd\	4ff#\	2.ryy	2.ryy
8F#\	.	.	.	.	.	.	.	.	.	8f#/	8a\	.	.	.	.	.
8G\	.	4r	.	4r	.	4r	.	4r	.	8g/	8b\	.	4r	4r	.	.
8A\	.	.	.	.	.	.	.	.	.	8e/	8cc#\	.	.	.	.	.
!	!	!	!	!LO:TX:a:t=problem: zamazane nuty	!	!	!	!	!	!	!	!	!	!	!	!
8B\	.	4F#\	in	4r	.	8a\L	in	8dd\L	in	8f#/	8dd\	.	4dd\	4ff#\	.	.
8G\J	.	.	.	.	.	8a\J	ex-	8a\J	.	8d/J	8a\J	.	.	.	.	.
=137	=137	=137	=137	=137	=137	=137	=137	=137	=137	=137	=137	=137	=137	=137	=137	=137
!LO:TX:a:t=problem: mixed beam	!	!	!	!	!	!	!	!	!	!	!	!	!	!	!	!
8G\L	.	4G\	ex-	4B\	ce-	4g\	-cel-	8b\L	ex-	4e/	8b\L	.	4ee\	4gg\	2.ryy	2.ryy
8G\	.	.	.	.	.	.	.	8ee\J	.	.	8g\J	.	.	.	.	.
8A\	.	4A\	-cel-	4F#/	.	4a\	.	4dd\	-cel-	4d/	4f#/	.	4dd\	4ff#\	.	.
8A\	.	.	.	.	.	.	.	.	.	.	.	.	.	.	.	.
8AA/	.	4AA/	.	4E/	.	4a\	.	4cc#\	.	4c#/	4e/	.	4a/	4ee\	.	.
8AA/J	.	.	.	.	.	.	.	.	.	.	.	.	.	.	.	.
=138	=138	=138	=138	=138	=138	=138	=138	=138	=138	=138	=138	=138	=138	=138	=138	=138
4D\	.	4D\	-sis	2F#/	-sis	2d\	-sis	2dd\	-sis	4d/	4d/	.	2f#/	2dd\	2.ryy	2.ryy
4r	.	4r	.	.	.	.	.	.	.	4r	4r	.	.	.	.	.
4r	.	4r	.	4r	.	4r	.	4r	.	4r	4r	.	4r	4r	.	.
==	==	==	==	==	==	==	==	==	==	==	==	==	==	==	==	==
*-	*-	*-	*-	*-	*-	*-	*-	*-	*-	*-	*-	*-	*-	*-	*-	*-
!!!system-decoration: [(g1)][(g2)][(g3)][(g4)]{g5}
!!!RDF**kern: i = editorial accidental
!!!AIN: 1 alto 4 empty 2 flt 1 tenor 2 violn 1 vox
!!!ENC: Anna Matuszewska
!!!END: 2020-07-04
